;FLAVOR:RepRap
;TIME:13908
;Filament used: 45.6304m
;Layer height: 0.3
;MINX:-76.157
;MINY:-61.75
;MINZ:0.4
;MAXX:60.25
;MAXY:61.75
;MAXZ:102.1
;POSTPROCESSED
;Generated with Cura_SteamEngine 4.13.1
T0
M190 S60
M104 S220
M109 S220
M82 ;absolute extrusion mode
G28 ;Home
G1 Z15.0 F6000 ;Move the platform down 15mm
;Prime the extruder
G92 E0
G1 F200 E3
G92 E0
M83 ;relative extrusion mode
G1 F1500 E-6.5
;LAYER_COUNT:340
;LAYER:0
M107 P1
M204 T5000
M566 X1800 Y1800
G0 F3600 X-61.564 Y-18.209 Z0.4
M204 P3000
M566 X1200 Y1200
;TYPE:SKIRT
G1 F1500 E6.5
G1 F3000 X-60.801 Y-20.799 E0.22451
G1 X-60.103 Y-23.438 E0.22698
G1 X-59.481 Y-26.099 E0.22723
G1 X-58.944 Y-28.728 E0.22312
G1 X-58.47 Y-31.43 E0.2281
G1 X-58.071 Y-34.159 E0.22933
G1 X-57.758 Y-36.824 E0.22312
G1 X-57.517 Y-39.539 E0.22664
G1 X-57.354 Y-42.252 E0.22599
G1 X-57.266 Y-44.98 E0.22695
G1 X-57.25 Y-46.735 E0.14593
G1 X-57.249 Y-57.388 E0.8858
G1 X-57.238 Y-58.053 E0.0553
G1 X-57.19 Y-58.598 E0.04549
G1 X-57.062 Y-59.13 E0.0455
G1 X-56.858 Y-59.638 E0.04552
G1 X-56.582 Y-60.111 E0.04554
G1 X-56.24 Y-60.539 E0.04555
G1 X-55.84 Y-60.912 E0.04548
G1 X-55.39 Y-61.223 E0.04548
G1 X-54.899 Y-61.466 E0.04555
G1 X-54.378 Y-61.634 E0.04552
G1 X-53.595 Y-61.74 E0.0657
G1 X-53.17 Y-61.75 E0.03535
G1 X55.847 Y-61.75 E9.0648
G1 X56.545 Y-61.74 E0.05804
G1 X57.09 Y-61.692 E0.04549
G1 X57.622 Y-61.565 E0.04548
G1 X58.131 Y-61.362 E0.04557
G1 X58.604 Y-61.088 E0.04545
G1 X59.033 Y-60.747 E0.04557
G1 X59.407 Y-60.348 E0.04547
G1 X59.719 Y-59.898 E0.04553
G1 X59.963 Y-59.408 E0.04552
G1 X60.132 Y-58.887 E0.04554
G1 X60.24 Y-58.095 E0.06646
G1 X60.25 Y-57.67 E0.03535
G1 X60.25 Y57.31 E9.56063
G1 X60.241 Y58.037 E0.06045
G1 X60.194 Y58.583 E0.04557
G1 X60.068 Y59.116 E0.04554
G1 X59.867 Y59.624 E0.04543
G1 X59.593 Y60.098 E0.04552
G1 X59.253 Y60.527 E0.04552
G1 X58.854 Y60.902 E0.04553
G1 X58.405 Y61.216 E0.04556
G1 X57.916 Y61.46 E0.04544
G1 X57.395 Y61.63 E0.04557
G1 X56.596 Y61.74 E0.06706
G1 X56.17 Y61.75 E0.03543
G1 X-55.841 Y61.75 E9.31375
G1 X-56.54 Y61.741 E0.05813
G1 X-57.086 Y61.694 E0.04557
G1 X-57.618 Y61.568 E0.04546
G1 X-58.127 Y61.366 E0.04553
G1 X-58.601 Y61.092 E0.04552
G1 X-59.03 Y60.752 E0.04552
G1 X-59.405 Y60.353 E0.04553
G1 X-59.717 Y59.904 E0.04546
G1 X-59.962 Y59.414 E0.04555
G1 X-60.188 Y58.627 E0.06808
G1 X-60.348 Y57.695 E0.07863
G1 X-60.493 Y56.774 E0.07752
G1 X-60.992 Y54.094 E0.22667
G1 X-61.566 Y51.436 E0.22611
G1 X-62.219 Y48.78 E0.22742
G1 X-62.942 Y46.159 E0.22608
G1 X-63.731 Y43.583 E0.22402
G1 X-64.608 Y40.987 E0.22784
G1 X-65.552 Y38.433 E0.22641
G1 X-66.571 Y35.9 E0.22702
G1 X-67.656 Y33.404 E0.2263
G1 X-68.806 Y30.956 E0.22489
G1 X-70.035 Y28.52 E0.22687
G1 X-71.325 Y26.132 E0.22568
G1 X-72.71 Y23.733 E0.23033
G1 X-73.772 Y21.997 E0.16922
G1 X-73.885 Y21.817 E0.01767
G1 X-74.141 Y21.333 E0.04553
G1 X-74.256 Y21.04 E0.02617
G1 X-74.542 Y20.206 E0.07331
G1 X-75.783 Y16.392 E0.3335
G1 X-75.988 Y15.732 E0.05747
G1 X-76.112 Y15.199 E0.0455
G1 X-76.157 Y14.654 E0.04547
G1 X-76.122 Y14.107 E0.04558
G1 X-75.992 Y13.519 E0.05007
G1 X-75.711 Y12.606 E0.07943
G1 X-74.489 Y8.855 E0.32803
G1 X-74.259 Y8.186 E0.05882
G1 X-74.044 Y7.683 E0.04549
G1 X-73.843 Y7.339 E0.03313
G1 X-73.181 Y6.336 E0.09993
G1 X-71.722 Y4.057 E0.22501
G1 X-70.296 Y1.683 E0.23027
G1 X-68.979 Y-.655 E0.22313
G1 X-67.701 Y-3.081 E0.228
G1 X-66.521 Y-5.487 E0.22282
G1 X-65.363 Y-8.024 E0.23189
G1 X-64.32 Y-10.492 E0.22279
G1 X-63.33 Y-13.037 E0.22706
G1 X-62.419 Y-15.585 E0.225
G1 X-61.564 Y-18.209 E0.22948
M566 X1800 Y1800
G0 F3600 X-61.1 Y-18.018
M566 X1200 Y1200
G1 F3000 X-60.317 Y-20.677 E0.23048
G1 X-59.623 Y-23.301 E0.22569
G1 X-58.986 Y-26.023 E0.23245
G1 X-58.45 Y-28.647 E0.22269
G1 X-57.976 Y-31.347 E0.22794
G1 X-57.58 Y-34.059 E0.2279
G1 X-57.258 Y-36.796 E0.22915
G1 X-57.019 Y-39.498 E0.22555
G1 X-56.853 Y-42.242 E0.22858
G1 X-56.766 Y-44.96 E0.22612
G1 X-56.75 Y-46.73 E0.14718
G1 X-56.75 Y-57.38 E0.88555
G1 X-56.739 Y-58.045 E0.0553
G1 X-56.69 Y-58.552 E0.04235
G1 X-56.563 Y-59.045 E0.04233
G1 X-56.361 Y-59.513 E0.04238
G1 X-56.087 Y-59.943 E0.0424
G1 X-55.75 Y-60.325 E0.04236
G1 X-55.358 Y-60.65 E0.04234
G1 X-54.919 Y-60.909 E0.04238
G1 X-54.446 Y-61.097 E0.04232
G1 X-53.948 Y-61.208 E0.04243
G1 X-53.262 Y-61.249 E0.05714
G1 X55.84 Y-61.25 E9.07187
G1 X56.538 Y-61.24 E0.05804
G1 X57.045 Y-61.192 E0.04235
G1 X57.539 Y-61.067 E0.04237
G1 X58.007 Y-60.865 E0.04238
G1 X58.437 Y-60.593 E0.04231
G1 X58.82 Y-60.257 E0.04236
G1 X59.146 Y-59.865 E0.04239
G1 X59.406 Y-59.427 E0.04235
G1 X59.595 Y-58.954 E0.04235
G1 X59.707 Y-58.457 E0.04236
G1 X59.749 Y-57.761 E0.05798
G1 X59.75 Y57.304 E9.56769
G1 X59.741 Y58.031 E0.06045
G1 X59.695 Y58.539 E0.04241
G1 X59.57 Y59.033 E0.04237
G1 X59.369 Y59.501 E0.04235
G1 X59.098 Y59.932 E0.04233
G1 X58.762 Y60.316 E0.04243
G1 X58.371 Y60.642 E0.04233
G1 X57.933 Y60.903 E0.0424
G1 X57.461 Y61.093 E0.04231
G1 X56.964 Y61.206 E0.04238
G1 X56.261 Y61.249 E0.05856
G1 X-55.835 Y61.25 E9.32082
G1 X-56.534 Y61.241 E0.05813
G1 X-57.041 Y61.194 E0.04234
G1 X-57.535 Y61.069 E0.04237
G1 X-58.003 Y60.868 E0.04235
G1 X-58.434 Y60.597 E0.04233
G1 X-58.818 Y60.261 E0.04243
G1 X-59.144 Y59.87 E0.04233
G1 X-59.405 Y59.432 E0.0424
G1 X-59.594 Y58.959 E0.04235
G1 X-59.695 Y58.542 E0.03568
G1 X-59.854 Y57.617 E0.07804
G1 X-60.002 Y56.676 E0.07921
G1 X-60.499 Y54.009 E0.22558
G1 X-61.08 Y51.317 E0.22899
G1 X-61.732 Y48.665 E0.22708
G1 X-62.462 Y46.017 E0.2284
G1 X-63.257 Y43.423 E0.22559
G1 X-64.132 Y40.833 E0.22732
G1 X-65.09 Y38.241 E0.22978
G1 X-66.109 Y35.707 E0.2271
G1 X-67.186 Y33.231 E0.22451
G1 X-68.362 Y30.728 E0.22995
G1 X-69.603 Y28.266 E0.22925
G1 X-70.884 Y25.896 E0.22401
G1 X-72.272 Y23.491 E0.23089
G1 X-73.349 Y21.731 E0.17157
G1 X-73.462 Y21.551 E0.01767
G1 X-73.783 Y20.878 E0.062
G1 X-74.066 Y20.051 E0.07268
G1 X-75.306 Y16.244 E0.33292
G1 X-75.511 Y15.584 E0.05747
G1 X-75.623 Y15.087 E0.04236
G1 X-75.657 Y14.579 E0.04233
G1 X-75.61 Y14.071 E0.04242
G1 X-75.514 Y13.666 E0.03461
G1 X-75.235 Y12.761 E0.07875
G1 X-74.016 Y9.017 E0.3274
G1 X-73.786 Y8.348 E0.05882
G1 X-73.584 Y7.881 E0.04231
G1 X-73.425 Y7.615 E0.02577
G1 X-72.785 Y6.646 E0.09656
G1 X-71.288 Y4.307 E0.23091
G1 X-69.888 Y1.976 E0.22609
G1 X-68.534 Y-.428 E0.22942
G1 X-67.265 Y-2.838 E0.22648
G1 X-66.051 Y-5.311 E0.22907
G1 X-64.92 Y-7.789 E0.22649
G1 X-63.843 Y-10.339 E0.23017
G1 X-62.864 Y-12.855 E0.22449
G1 X-61.939 Y-15.441 E0.22837
G1 X-61.1 Y-18.018 E0.22535
M566 X1800 Y1800
G0 F3600 X-62.83 Y14.61
M566 X1200 Y1200
G1 F3000 X-62.966 Y15.029 E0.03663
G1 X-63.332 Y15.295 E0.03762
G1 X-63.768 Y15.295 E0.03625
G1 X-64.134 Y15.029 E0.03762
G1 X-64.27 Y14.61 E0.03663
G1 X-64.134 Y14.191 E0.03663
G1 X-63.768 Y13.925 E0.03762
G1 X-63.332 Y13.925 E0.03625
G1 X-62.966 Y14.191 E0.03762
G1 X-62.83 Y14.61 E0.03663
M566 X1800 Y1800
G0 F3600 X-62.305 Y14.61
M566 X1200 Y1200
G1 F3000 X-62.542 Y15.338 E0.06366
G1 X-63.169 Y15.795 E0.06451
G1 X-63.931 Y15.795 E0.06336
G1 X-64.558 Y15.338 E0.06451
G1 X-64.795 Y14.61 E0.06366
G1 X-64.558 Y13.882 E0.06366
G1 X-63.931 Y13.425 E0.06451
G1 X-63.169 Y13.425 E0.06336
G1 X-62.542 Y13.882 E0.06451
G1 X-62.305 Y14.61 E0.06366
M566 X1800 Y1800
G0 F3600 X-61.778 Y14.61
M566 X1200 Y1200
G1 F3000 X-62.116 Y15.646 E0.09061
G1 X-63.007 Y16.295 E0.09166
G1 X-64.093 Y16.295 E0.0903
G1 X-64.984 Y15.646 E0.09166
G1 X-65.322 Y14.61 E0.09061
G1 X-64.984 Y13.574 E0.09061
G1 X-64.093 Y12.925 E0.09166
G1 X-63.007 Y12.925 E0.0903
G1 X-62.116 Y13.574 E0.09166
G1 X-61.778 Y14.61 E0.09061
M566 X1800 Y1800
G0 F3600 X-61.253 Y14.61
M566 X1200 Y1200
G1 F3000 X-61.691 Y15.955 E0.11762
G1 X-62.845 Y16.795 E0.11868
G1 X-64.255 Y16.795 E0.11724
G1 X-65.409 Y15.955 E0.11868
G1 X-65.847 Y14.61 E0.11762
G1 X-65.409 Y13.265 E0.11762
G1 X-64.255 Y12.425 E0.11868
G1 X-62.845 Y12.425 E0.11724
G1 X-61.691 Y13.265 E0.11868
G1 X-61.253 Y14.61 E0.11762
M566 X1800 Y1800
G0 F3600 X-60.728 Y14.61
M566 X1200 Y1200
G1 F3000 X-61.267 Y16.266 E0.14481
G1 X-62.68 Y17.295 E0.14534
G1 X-64.42 Y17.295 E0.14468
G1 X-65.833 Y16.266 E0.14534
G1 X-66.372 Y14.61 E0.14481
G1 X-65.833 Y12.954 E0.14481
G1 X-64.42 Y11.925 E0.14534
G1 X-62.68 Y11.925 E0.14468
G1 X-61.267 Y12.954 E0.14534
G1 X-60.728 Y14.61 E0.14481
M566 X1800 Y1800
G0 F3600 X-60.201 Y14.61
M566 X1200 Y1200
G1 F3000 X-60.84 Y16.573 E0.17165
G1 X-62.518 Y17.795 E0.1726
G1 X-64.582 Y17.795 E0.17162
G1 X-66.26 Y16.573 E0.1726
G1 X-66.899 Y14.61 E0.17165
G1 X-66.26 Y12.647 E0.17165
G1 X-64.582 Y11.425 E0.1726
G1 X-62.518 Y11.425 E0.17162
G1 X-60.84 Y12.647 E0.1726
G1 X-60.201 Y14.61 E0.17165
M566 X1800 Y1800
G0 F3600 X-59.676 Y14.61
M566 X1200 Y1200
G1 F3000 X-60.416 Y16.882 E0.19869
G1 X-62.356 Y18.295 E0.19956
G1 X-64.744 Y18.295 E0.19856
G1 X-66.684 Y16.882 E0.19956
G1 X-67.424 Y14.61 E0.19869
G1 X-66.684 Y12.338 E0.19869
G1 X-64.744 Y10.925 E0.19956
G1 X-62.356 Y10.925 E0.19856
G1 X-60.416 Y12.338 E0.19956
G1 X-59.676 Y14.61 E0.19869
M566 X1800 Y1800
G0 F3600 X-59.149 Y14.61
M566 X1200 Y1200
G1 F3000 X-59.989 Y17.19 E0.22561
G1 X-62.194 Y18.795 E0.22677
G1 X-64.906 Y18.795 E0.2255
G1 X-67.111 Y17.19 E0.22677
G1 X-67.951 Y14.61 E0.22561
G1 X-67.111 Y12.03 E0.22561
G1 X-64.906 Y10.425 E0.22677
G1 X-62.194 Y10.425 E0.2255
G1 X-59.989 Y12.03 E0.22677
G1 X-59.149 Y14.61 E0.22561
M566 X1800 Y1800
G0 F3600 X-58.624 Y14.61
M566 X1200 Y1200
G1 F3000 X-59.565 Y17.5 E0.25272
G1 X-62.031 Y19.295 E0.25362
G1 X-65.069 Y19.295 E0.25261
G1 X-67.535 Y17.5 E0.25362
G1 X-68.476 Y14.61 E0.25272
G1 X-67.535 Y11.72 E0.25272
G1 X-65.069 Y9.925 E0.25362
G1 X-62.031 Y9.925 E0.25261
G1 X-59.565 Y11.72 E0.25362
G1 X-58.624 Y14.61 E0.25272
M566 X1800 Y1800
G0 F3600 X-58.098 Y14.61
M566 X1200 Y1200
G1 F3000 X-59.139 Y17.809 E0.27973
G1 X-61.867 Y19.795 E0.28058
G1 X-65.233 Y19.795 E0.27988
G1 X-67.961 Y17.809 E0.28058
G1 X-69.002 Y14.61 E0.27973
G1 X-67.961 Y11.411 E0.27973
G1 X-65.233 Y9.425 E0.28058
G1 X-61.867 Y9.425 E0.27988
G1 X-59.139 Y11.411 E0.28058
G1 X-58.098 Y14.61 E0.27973
M566 X1800 Y1800
G0 F3600 X-57.572 Y14.61
M566 X1200 Y1200
G1 F3000 X-58.714 Y18.117 E0.30668
G1 X-61.705 Y20.295 E0.30765
G1 X-65.395 Y20.295 E0.30682
G1 X-68.386 Y18.117 E0.30765
G1 X-69.528 Y14.61 E0.30668
G1 X-68.386 Y11.103 E0.30668
G1 X-65.395 Y8.925 E0.30765
G1 X-61.705 Y8.925 E0.30682
G1 X-58.714 Y11.103 E0.30765
G1 X-57.572 Y14.61 E0.30668
M566 X1800 Y1800
G0 F3600 X-57.046 Y14.61
M566 X1200 Y1200
G1 F3000 X-58.288 Y18.426 E0.33368
G1 X-61.542 Y20.795 E0.33468
G1 X-65.558 Y20.795 E0.33393
G1 X-68.812 Y18.426 E0.33468
G1 X-70.054 Y14.61 E0.33368
G1 X-68.812 Y10.794 E0.33368
G1 X-65.558 Y8.425 E0.33468
G1 X-61.542 Y8.425 E0.33393
G1 X-58.288 Y10.794 E0.33468
G1 X-57.046 Y14.61 E0.33368
M566 X1800 Y1800
G0 F3600 X-56.52 Y14.61
M566 X1200 Y1200
G1 F3000 X-57.863 Y18.735 E0.36072
G1 X-61.38 Y21.295 E0.36171
G1 X-65.72 Y21.295 E0.36087
G1 X-69.237 Y18.735 E0.36171
G1 X-70.58 Y14.61 E0.36072
G1 X-69.237 Y10.485 E0.36072
G1 X-65.72 Y7.925 E0.36171
G1 X-61.38 Y7.925 E0.36087
G1 X-57.863 Y10.485 E0.36171
G1 X-56.52 Y14.61 E0.36072
M566 X1800 Y1800
G0 F3600 X-55.995 Y14.61
M566 X1200 Y1200
G1 F3000 X-57.438 Y19.043 E0.38764
G1 X-61.218 Y21.795 E0.38878
G1 X-65.882 Y21.795 E0.38781
G1 X-69.662 Y19.043 E0.38878
G1 X-71.105 Y14.61 E0.38764
G1 X-69.662 Y10.177 E0.38764
G1 X-65.882 Y7.425 E0.38878
G1 X-61.218 Y7.425 E0.38781
G1 X-57.438 Y10.177 E0.38878
G1 X-55.995 Y14.61 E0.38764
M566 X1800 Y1800
G0 F3600 X-55.469 Y14.61
M566 X1200 Y1200
G1 F3000 X-57.013 Y19.353 E0.41475
G1 X-61.053 Y22.295 E0.41556
G1 X-66.047 Y22.295 E0.41525
G1 X-70.087 Y19.353 E0.41556
G1 X-71.631 Y14.61 E0.41475
G1 X-70.087 Y9.867 E0.41475
G1 X-66.047 Y6.925 E0.41556
G1 X-61.053 Y6.925 E0.41525
G1 X-57.013 Y9.867 E0.41556
G1 X-55.469 Y14.61 E0.41475
M566 X1800 Y1800
G0 F3600 X-54.943 Y14.61
M566 X1200 Y1200
G1 F3000 X-56.588 Y19.662 E0.44178
G1 X-60.891 Y22.795 E0.44259
G1 X-66.209 Y22.795 E0.44219
G1 X-70.512 Y19.662 E0.44259
G1 X-72.157 Y14.61 E0.44178
G1 X-70.512 Y9.558 E0.44178
G1 X-66.209 Y6.425 E0.44259
G1 X-60.891 Y6.425 E0.44219
G1 X-56.588 Y9.558 E0.44259
G1 X-54.943 Y14.61 E0.44178
M566 X1800 Y1800
G0 F3600 X-63.357 Y14.61
M566 X1200 Y1200
;TYPE:SUPPORT
G1 F3000 X-63.393 Y14.721 E0.0097
G1 X-63.494 Y14.795 E0.01041
G1 X-63.606 Y14.795 E0.00931
G1 X-63.707 Y14.721 E0.01041
G1 X-63.743 Y14.61 E0.0097
G1 X-63.707 Y14.499 E0.0097
G1 X-63.606 Y14.425 E0.01041
G1 X-63.494 Y14.425 E0.00931
G1 X-63.393 Y14.499 E0.01041
G1 X-63.357 Y14.61 E0.0097
M566 X1800 Y1800
G1 F1500 E-6.5
;MESH:Dicotomy-ElecMount.3mf
G0 F3600 X-55.736 Y37.335
G0 X-55.736 Y38.764
G0 X-54.75 Y39.75
M566 X1200 Y1200
;TYPE:WALL-INNER
G1 F1500 E6.5
G1 F3000 X-51.75 Y39.75 E0.24945
G1 X-51.75 Y-56.25 E7.98243
G1 X54.75 Y-56.25 E8.85551
G1 X54.75 Y56.25 E9.35441
G1 X-54.75 Y56.25 E9.10496
G1 X-54.75 Y39.75 E1.37198
M566 X1800 Y1800
G0 F3600 X-35.913 Y45.803
M566 X1200 Y1200
G1 F3000 X-36.437 Y46.574 E0.07751
G1 X-36.704 Y47.378 E0.07044
G1 X-36.751 Y48.307 E0.07735
G1 X-36.561 Y49.135 E0.07064
G1 X-36.105 Y49.972 E0.07926
G1 X-35.407 Y50.654 E0.08114
G1 X-34.561 Y51.086 E0.07899
G1 X-33.722 Y51.258 E0.07121
G1 X-32.772 Y51.185 E0.07923
G1 X-31.884 Y50.836 E0.07934
G1 X-31.222 Y50.332 E0.06918
G1 X-30.709 Y49.691 E0.06827
G1 X-30.334 Y48.809 E0.07969
G1 X-30.237 Y47.837 E0.08122
G1 X-30.429 Y46.884 E0.08083
G1 X-30.896 Y46.027 E0.08115
G1 X-31.593 Y45.349 E0.08085
G1 X-32.439 Y44.914 E0.0791
G1 X-33.295 Y44.739 E0.07265
G1 X-34.378 Y44.849 E0.09052
G1 X-35.265 Y45.255 E0.08111
G1 X-35.913 Y45.803 E0.07057
M566 X1800 Y1800
G0 F3600 X-33.832 Y45.729
G0 X43.296 Y47.381
M566 X1200 Y1200
G1 F3000 X43.249 Y48.307 E0.0771
G1 X43.439 Y49.133 E0.07048
G1 X43.895 Y49.972 E0.0794
G1 X44.593 Y50.654 E0.08114
G1 X45.439 Y51.086 E0.07899
G1 X46.278 Y51.258 E0.07121
G1 X47.229 Y51.185 E0.07931
G1 X48.116 Y50.836 E0.07926
G1 X48.778 Y50.334 E0.06908
G1 X49.295 Y49.688 E0.0688
G1 X49.666 Y48.809 E0.07933
G1 X49.763 Y47.837 E0.08122
G1 X49.571 Y46.884 E0.08083
G1 X49.104 Y46.027 E0.08115
G1 X48.407 Y45.349 E0.08085
G1 X47.561 Y44.914 E0.0791
G1 X46.705 Y44.739 E0.07265
G1 X45.622 Y44.849 E0.09052
G1 X44.736 Y45.255 E0.08104
G1 X44.087 Y45.801 E0.07052
G1 X43.561 Y46.575 E0.07781
G1 X43.296 Y47.381 E0.07055
M566 X1800 Y1800
G0 F3600 X43.895 Y-46.028
M566 X1200 Y1200
G1 F3000 X44.593 Y-45.346 E0.08114
G1 X45.454 Y-44.905 E0.08044
G1 X46.417 Y-44.732 E0.08136
G1 X47.365 Y-44.853 E0.07947
G1 X48.131 Y-45.176 E0.06912
G1 X48.778 Y-45.666 E0.06749
G1 X49.295 Y-46.312 E0.0688
G1 X49.666 Y-47.191 E0.07933
G1 X49.763 Y-48.163 E0.08122
G1 X49.571 Y-49.116 E0.08083
G1 X49.104 Y-49.973 E0.08115
G1 X48.407 Y-50.651 E0.08085
G1 X47.544 Y-51.095 E0.0807
G1 X46.574 Y-51.268 E0.08193
G1 X45.604 Y-51.142 E0.08133
G1 X44.736 Y-50.745 E0.07937
G1 X44.087 Y-50.199 E0.07052
G1 X43.561 Y-49.425 E0.07781
G1 X43.296 Y-48.619 E0.07055
G1 X43.249 Y-47.693 E0.0771
G1 X43.439 Y-46.867 E0.07048
G1 X43.895 Y-46.028 E0.0794
M566 X1800 Y1800
G0 F3600 X-34.546 Y-44.905
M566 X1200 Y1200
G1 F3000 X-33.583 Y-44.732 E0.08136
G1 X-32.635 Y-44.853 E0.07947
G1 X-31.869 Y-45.176 E0.06912
G1 X-31.222 Y-45.666 E0.06749
G1 X-30.709 Y-46.309 E0.0684
G1 X-30.334 Y-47.191 E0.07969
G1 X-30.237 Y-48.163 E0.08122
G1 X-30.429 Y-49.116 E0.08083
G1 X-30.896 Y-49.973 E0.08115
G1 X-31.593 Y-50.651 E0.08085
G1 X-32.439 Y-51.086 E0.0791
G1 X-33.174 Y-51.236 E0.06238
G1 X-33.517 Y-51.256 E0.02857
G1 X-34.396 Y-51.142 E0.0737
G1 X-35.264 Y-50.745 E0.07937
G1 X-35.913 Y-50.197 E0.07063
G1 X-36.437 Y-49.426 E0.07751
G1 X-36.704 Y-48.622 E0.07044
G1 X-36.751 Y-47.693 E0.07735
G1 X-36.561 Y-46.865 E0.07064
G1 X-36.105 Y-46.028 E0.07926
G1 X-35.407 Y-45.346 E0.08114
G1 X-34.546 Y-44.905 E0.08044
M566 X1800 Y1800
G0 F3600 X-34.384 Y-45.384
M566 X1200 Y1200
G1 F3000 X-33.57 Y-45.238 E0.06876
G1 X-32.766 Y-45.34 E0.06739
G1 X-32.121 Y-45.612 E0.05821
G1 X-31.574 Y-46.027 E0.05709
G1 X-31.142 Y-46.568 E0.05757
G1 X-30.824 Y-47.316 E0.06758
G1 X-30.742 Y-48.138 E0.06869
G1 X-30.904 Y-48.943 E0.06828
G1 X-31.299 Y-49.667 E0.06858
G1 X-31.888 Y-50.241 E0.06839
G1 X-32.606 Y-50.61 E0.06712
G1 X-33.239 Y-50.739 E0.05372
