;FLAVOR:RepRap
;TIME:2724
;Filament used: 8.79683m
;Layer height: 0.3
;MINX:-83.742
;MINY:-83.742
;MINZ:0.4
;MAXX:83.742
;MAXY:83.742
;MAXZ:6.1
;POSTPROCESSED
;Generated with Cura_SteamEngine 4.13.1
T0
M190 S60
M104 S220
M109 S220
M82 ;absolute extrusion mode
G28 ;Home
G1 Z15.0 F6000 ;Move the platform down 15mm
;Prime the extruder
G92 E0
G1 F200 E3
G92 E0
M83 ;relative extrusion mode
G1 F1500 E-6.5
;LAYER_COUNT:20
;LAYER:0
M107 P1
M204 T5000
M566 X1800 Y1800
G0 F3600 X52.08 Y50.312 Z0.4
M204 P3000
M566 X1200 Y1200
;TYPE:SKIRT
G1 F1500 E6.5
G1 F3000 X50.144 Y52.253 E0.22795
G1 X48.284 Y54.224 E0.22534
G1 X46.473 Y56.259 E0.22651
G1 X44.743 Y58.314 E0.22336
G1 X43.025 Y60.478 E0.22975
G1 X41.406 Y62.64 E0.22459
G1 X39.822 Y64.884 E0.22839
G1 X38.335 Y67.122 E0.22342
G1 X36.891 Y69.437 E0.22687
G1 X35.509 Y71.798 E0.22748
G1 X34.193 Y74.196 E0.22745
G1 X33.338 Y75.852 E0.15497
G1 X33.052 Y76.318 E0.04546
G1 X32.701 Y76.739 E0.04558
G1 X32.293 Y77.103 E0.04546
G1 X31.832 Y77.407 E0.04592
G1 X31.71 Y77.475 E0.01161
G1 X31.246 Y77.693 E0.04263
G1 X30.749 Y77.887 E0.04436
G1 X28.379 Y78.78 E0.21059
G1 X27.368 Y79.143 E0.08932
G1 X27.082 Y79.239 E0.02508
G1 X24.526 Y80.063 E0.2233
G1 X23.54 Y80.365 E0.08575
G1 X23.268 Y80.441 E0.02348
G1 X20.597 Y81.163 E0.23007
G1 X19.679 Y81.397 E0.07877
G1 X19.39 Y81.463 E0.02465
G1 X16.755 Y82.043 E0.22435
G1 X15.719 Y82.254 E0.08791
G1 X15.408 Y82.309 E0.02626
G1 X12.803 Y82.751 E0.2197
G1 X11.734 Y82.916 E0.08994
G1 X11.488 Y82.948 E0.02063
G1 X8.768 Y83.276 E0.22781
G1 X7.77 Y83.381 E0.08344
G1 X7.489 Y83.404 E0.02344
G1 X4.782 Y83.6 E0.22568
G1 X3.744 Y83.659 E0.08645
G1 X3.437 Y83.669 E0.02554
G1 X0.756 Y83.733 E0.22299
G1 X-.258 Y83.742 E0.08432
G1 X-.627 Y83.736 E0.03069
G1 X-3.292 Y83.672 E0.22166
G1 X-4.26 Y83.634 E0.08055
G1 X-4.641 Y83.61 E0.03174
G1 X-7.304 Y83.417 E0.22201
G1 X-8.298 Y83.33 E0.08297
G1 X-8.609 Y83.296 E0.02601
G1 X-11.252 Y82.976 E0.22137
G1 X-12.302 Y82.833 E0.08811
G1 X-12.656 Y82.776 E0.02981
G1 X-15.257 Y82.335 E0.21936
G1 X-16.224 Y82.155 E0.08179
G1 X-16.643 Y82.067 E0.0356
G1 X-19.21 Y81.502 E0.21856
G1 X-20.174 Y81.276 E0.08233
G1 X-20.431 Y81.211 E0.02204
G1 X-23.099 Y80.487 E0.22987
G1 X-24.076 Y80.207 E0.08451
G1 X-24.348 Y80.122 E0.0237
G1 X-26.923 Y79.289 E0.22504
G1 X-27.866 Y78.969 E0.0828
G1 X-28.256 Y78.827 E0.03451
G1 X-30.706 Y77.903 E0.21772
G1 X-31.368 Y77.642 E0.05917
G1 X-31.862 Y77.404 E0.04559
G1 X-32.315 Y77.098 E0.04546
G1 X-32.719 Y76.728 E0.04555
G1 X-33.065 Y76.304 E0.0455
G1 X-33.304 Y75.914 E0.03803
G1 X-33.676 Y75.213 E0.06599
G1 X-34.305 Y73.991 E0.11428
G1 X-35.613 Y71.616 E0.22545
G1 X-37.006 Y69.25 E0.2283
G1 X-38.453 Y66.943 E0.22644
G1 X-39.949 Y64.701 E0.22411
G1 X-41.535 Y62.465 E0.22795
G1 X-43.167 Y60.296 E0.2257
G1 X-44.876 Y58.155 E0.22779
G1 X-46.615 Y56.096 E0.2241
G1 X-48.426 Y54.071 E0.22589
G1 X-50.312 Y52.08 E0.22804
G1 X-52.253 Y50.144 E0.22795
G1 X-54.224 Y48.284 E0.22534
G1 X-56.259 Y46.473 E0.22651
G1 X-58.314 Y44.743 E0.22336
G1 X-60.478 Y43.025 E0.22975
G1 X-62.64 Y41.406 E0.22459
G1 X-64.86 Y39.84 E0.2259
G1 X-67.146 Y38.321 E0.22822
G1 X-69.437 Y36.891 E0.22456
G1 X-71.824 Y35.494 E0.22997
G1 X-74.165 Y34.209 E0.22205
G1 X-75.852 Y33.338 E0.15787
G1 X-76.318 Y33.052 E0.04546
G1 X-76.739 Y32.701 E0.04558
G1 X-77.103 Y32.293 E0.04546
G1 X-77.407 Y31.832 E0.04592
G1 X-77.475 Y31.71 E0.01161
G1 X-77.693 Y31.245 E0.0427
G1 X-77.907 Y30.696 E0.049
G1 X-78.78 Y28.379 E0.20588
G1 X-79.143 Y27.368 E0.08932
G1 X-79.239 Y27.082 E0.02508
G1 X-80.063 Y24.526 E0.2233
G1 X-80.365 Y23.54 E0.08575
G1 X-80.441 Y23.268 E0.02348
G1 X-81.163 Y20.597 E0.23007
G1 X-81.397 Y19.679 E0.07877
G1 X-81.463 Y19.39 E0.02465
G1 X-82.043 Y16.755 E0.22435
G1 X-82.254 Y15.719 E0.08791
G1 X-82.309 Y15.408 E0.02626
G1 X-82.751 Y12.803 E0.2197
G1 X-82.916 Y11.734 E0.08994
G1 X-82.948 Y11.488 E0.02063
G1 X-83.276 Y8.768 E0.22781
G1 X-83.381 Y7.77 E0.08344
G1 X-83.404 Y7.489 E0.02344
G1 X-83.6 Y4.782 E0.22568
G1 X-83.659 Y3.744 E0.08645
G1 X-83.669 Y3.437 E0.02554
G1 X-83.733 Y0.756 E0.22299
G1 X-83.742 Y-.258 E0.08432
G1 X-83.736 Y-.627 E0.03069
G1 X-83.672 Y-3.292 E0.22166
G1 X-83.634 Y-4.26 E0.08055
G1 X-83.61 Y-4.641 E0.03174
G1 X-83.417 Y-7.304 E0.22201
G1 X-83.33 Y-8.306 E0.08363
G1 X-83.288 Y-8.675 E0.03088
G1 X-82.976 Y-11.252 E0.21584
G1 X-82.833 Y-12.302 E0.08811
G1 X-82.776 Y-12.656 E0.02981
G1 X-82.335 Y-15.257 E0.21936
G1 X-82.155 Y-16.224 E0.08179
G1 X-82.067 Y-16.643 E0.0356
G1 X-81.502 Y-19.21 E0.21856
G1 X-81.276 Y-20.174 E0.08233
G1 X-81.211 Y-20.431 E0.02204
G1 X-80.487 Y-23.099 E0.22987
G1 X-80.207 Y-24.076 E0.08451
G1 X-80.122 Y-24.348 E0.0237
G1 X-79.289 Y-26.923 E0.22504
G1 X-78.969 Y-27.866 E0.0828
G1 X-78.827 Y-28.255 E0.03443
G1 X-77.897 Y-30.722 E0.21922
G1 X-77.64 Y-31.372 E0.05812
G1 X-77.402 Y-31.865 E0.04552
G1 X-77.095 Y-32.318 E0.0455
G1 X-76.726 Y-32.721 E0.04543
G1 X-76.301 Y-33.067 E0.04557
G1 X-75.915 Y-33.303 E0.03762
G1 X-75.265 Y-33.649 E0.06123
G1 X-73.978 Y-34.312 E0.12038
G1 X-71.616 Y-35.613 E0.22422
G1 X-69.25 Y-37.006 E0.2283
G1 X-66.943 Y-38.453 E0.22644
G1 X-64.701 Y-39.949 E0.22411
G1 X-62.465 Y-41.535 E0.22795
G1 X-60.296 Y-43.167 E0.2257
G1 X-58.155 Y-44.876 E0.22779
G1 X-56.096 Y-46.615 E0.2241
G1 X-54.071 Y-48.426 E0.22589
G1 X-52.08 Y-50.312 E0.22804
G1 X-50.144 Y-52.253 E0.22795
G1 X-48.284 Y-54.224 E0.22534
G1 X-46.473 Y-56.259 E0.22651
G1 X-44.743 Y-58.314 E0.22336
G1 X-43.025 Y-60.478 E0.22975
G1 X-41.406 Y-62.64 E0.22459
G1 X-39.822 Y-64.884 E0.22839
G1 X-38.335 Y-67.122 E0.22342
G1 X-36.891 Y-69.437 E0.22687
G1 X-35.509 Y-71.798 E0.22748
G1 X-34.193 Y-74.196 E0.22745
G1 X-33.338 Y-75.852 E0.15497
G1 X-33.052 Y-76.318 E0.04546
G1 X-32.701 Y-76.739 E0.04558
G1 X-32.293 Y-77.103 E0.04546
G1 X-31.832 Y-77.407 E0.04592
G1 X-31.71 Y-77.475 E0.01161
G1 X-31.246 Y-77.693 E0.04263
G1 X-30.749 Y-77.887 E0.04436
G1 X-28.379 Y-78.78 E0.21059
G1 X-27.368 Y-79.143 E0.08932
G1 X-27.082 Y-79.239 E0.02508
G1 X-24.526 Y-80.063 E0.2233
G1 X-23.54 Y-80.365 E0.08575
G1 X-23.268 Y-80.441 E0.02348
G1 X-20.597 Y-81.163 E0.23007
G1 X-19.679 Y-81.397 E0.07877
G1 X-19.39 Y-81.463 E0.02465
G1 X-16.755 Y-82.043 E0.22435
G1 X-15.719 Y-82.254 E0.08791
G1 X-15.408 Y-82.309 E0.02626
G1 X-12.803 Y-82.751 E0.2197
G1 X-11.734 Y-82.916 E0.08994
G1 X-11.488 Y-82.948 E0.02063
G1 X-8.768 Y-83.276 E0.22781
G1 X-7.77 Y-83.381 E0.08344
G1 X-7.489 Y-83.404 E0.02344
G1 X-4.782 Y-83.6 E0.22568
G1 X-3.744 Y-83.659 E0.08645
G1 X-3.437 Y-83.669 E0.02554
G1 X-.756 Y-83.733 E0.22299
G1 X0.258 Y-83.742 E0.08432
G1 X0.627 Y-83.736 E0.03069
G1 X3.292 Y-83.672 E0.22166
G1 X4.26 Y-83.635 E0.08055
G1 X4.642 Y-83.61 E0.03183
G1 X7.304 Y-83.417 E0.22193
G1 X8.297 Y-83.33 E0.08288
G1 X8.608 Y-83.296 E0.02601
G1 X11.251 Y-82.976 E0.22137
G1 X12.305 Y-82.833 E0.08844
G1 X12.656 Y-82.776 E0.02957
G1 X15.257 Y-82.335 E0.21936
G1 X16.224 Y-82.155 E0.08179
G1 X16.643 Y-82.067 E0.0356
G1 X19.21 Y-81.502 E0.21856
G1 X20.187 Y-81.272 E0.08346
G1 X20.431 Y-81.21 E0.02093
G1 X23.1 Y-80.487 E0.22993
G1 X24.075 Y-80.207 E0.08435
G1 X24.346 Y-80.122 E0.02362
G1 X26.923 Y-79.289 E0.22519
G1 X27.87 Y-78.968 E0.08314
G1 X28.255 Y-78.827 E0.03409
G1 X30.695 Y-77.907 E0.21683
G1 X31.358 Y-77.648 E0.05919
G1 X31.851 Y-77.412 E0.04545
G1 X32.306 Y-77.107 E0.04555
G1 X32.711 Y-76.739 E0.0455
G1 X33.058 Y-76.316 E0.04549
G1 X33.305 Y-75.913 E0.0393
G1 X33.636 Y-75.291 E0.05859
G1 X34.32 Y-73.963 E0.12421
G1 X35.613 Y-71.616 E0.22281
G1 X37.005 Y-69.252 E0.22811
G1 X38.438 Y-66.967 E0.22427
G1 X39.965 Y-64.679 E0.22873
G1 X41.535 Y-62.465 E0.22568
G1 X43.167 Y-60.296 E0.2257
G1 X44.876 Y-58.155 E0.22779
G1 X46.614 Y-56.097 E0.22398
G1 X48.426 Y-54.072 E0.22595
G1 X50.311 Y-52.081 E0.22798
G1 X52.253 Y-50.144 E0.22807
G1 X54.223 Y-48.285 E0.22523
G1 X56.259 Y-46.473 E0.22663
G1 X58.313 Y-44.744 E0.22325
G1 X60.478 Y-43.025 E0.22986
G1 X62.64 Y-41.406 E0.22459
G1 X64.86 Y-39.84 E0.2259
G1 X67.146 Y-38.321 E0.22822
G1 X69.437 Y-36.891 E0.22456
G1 X71.824 Y-35.494 E0.22997
G1 X74.165 Y-34.209 E0.22205
G1 X75.852 Y-33.338 E0.15787
G1 X76.318 Y-33.052 E0.04546
G1 X76.739 Y-32.701 E0.04558
G1 X77.103 Y-32.293 E0.04546
G1 X77.402 Y-31.841 E0.04506
G1 X77.471 Y-31.718 E0.01173
G1 X77.694 Y-31.245 E0.04348
G1 X77.888 Y-30.748 E0.04436
G1 X78.781 Y-28.377 E0.21067
G1 X79.143 Y-27.369 E0.08906
G1 X79.239 Y-27.083 E0.02508
G1 X80.063 Y-24.527 E0.2233
G1 X80.365 Y-23.541 E0.08575
G1 X80.441 Y-23.27 E0.0234
G1 X81.164 Y-20.597 E0.23025
G1 X81.377 Y-19.762 E0.07165
G1 X81.462 Y-19.391 E0.03165
G1 X82.041 Y-16.759 E0.22408
G1 X82.254 Y-15.719 E0.08827
G1 X82.309 Y-15.408 E0.02626
G1 X82.751 Y-12.804 E0.21962
G1 X82.915 Y-11.739 E0.0896
G1 X82.947 Y-11.498 E0.02022
G1 X83.276 Y-8.768 E0.22864
G1 X83.381 Y-7.77 E0.08344
G1 X83.404 Y-7.489 E0.02344
G1 X83.6 Y-4.782 E0.22568
G1 X83.659 Y-3.744 E0.08645
G1 X83.669 Y-3.437 E0.02554
G1 X83.733 Y-.756 E0.22299
G1 X83.742 Y0.259 E0.0844
G1 X83.736 Y0.627 E0.0306
G1 X83.672 Y3.292 E0.22166
G1 X83.635 Y4.26 E0.08055
G1 X83.61 Y4.642 E0.03183
G1 X83.417 Y7.303 E0.22184
G1 X83.33 Y8.297 E0.08297
G1 X83.296 Y8.608 E0.02601
G1 X82.976 Y11.253 E0.22154
G1 X82.833 Y12.302 E0.08803
G1 X82.776 Y12.656 E0.02981
G1 X82.335 Y15.257 E0.21936
G1 X82.155 Y16.227 E0.08203
G1 X82.067 Y16.643 E0.03536
G1 X81.502 Y19.21 E0.21856
G1 X81.271 Y20.192 E0.08388
G1 X81.21 Y20.43 E0.02043
G1 X80.487 Y23.098 E0.22985
G1 X80.207 Y24.075 E0.08451
G1 X80.122 Y24.346 E0.02362
G1 X79.289 Y26.924 E0.22527
G1 X78.969 Y27.865 E0.08264
G1 X78.827 Y28.254 E0.03443
G1 X77.915 Y30.674 E0.21504
G1 X77.642 Y31.367 E0.06193
G1 X77.405 Y31.861 E0.04556
G1 X77.098 Y32.314 E0.0455
G1 X76.729 Y32.718 E0.0455
G1 X76.305 Y33.064 E0.0455
G1 X75.915 Y33.303 E0.03803
G1 X75.265 Y33.649 E0.06123
G1 X73.978 Y34.312 E0.12038
G1 X71.616 Y35.613 E0.22422
G1 X69.25 Y37.006 E0.2283
G1 X66.943 Y38.453 E0.22644
G1 X64.701 Y39.949 E0.22411
G1 X62.465 Y41.535 E0.22795
G1 X60.296 Y43.167 E0.2257
G1 X58.155 Y44.876 E0.22779
G1 X56.096 Y46.615 E0.2241
G1 X54.071 Y48.426 E0.22589
G1 X52.08 Y50.312 E0.22804
M566 X1800 Y1800
G0 F3600 X51.753 Y49.931
M566 X1200 Y1200
G1 F3000 X49.798 Y51.892 E0.23025
G1 X47.918 Y53.884 E0.22775
G1 X46.105 Y55.921 E0.22675
G1 X44.325 Y58.037 E0.22992
G1 X42.65 Y60.145 E0.22388
G1 X40.985 Y62.37 E0.23107
G1 X39.43 Y64.573 E0.22422
G1 X37.901 Y66.874 E0.22972
G1 X36.451 Y69.197 E0.2277
G1 X35.07 Y71.556 E0.22729
G1 X33.774 Y73.918 E0.22402
G1 X32.894 Y75.622 E0.15947
G1 X32.625 Y76.055 E0.04239
G1 X32.292 Y76.441 E0.04239
G1 X31.903 Y76.77 E0.04236
G1 X31.466 Y77.038 E0.04263
G1 X30.606 Y77.406 E0.07778
G1 X28.209 Y78.31 E0.21301
G1 X27.209 Y78.669 E0.08835
G1 X26.928 Y78.763 E0.02464
G1 X24.379 Y79.585 E0.2227
G1 X23.405 Y79.884 E0.08472
G1 X23.138 Y79.958 E0.02304
G1 X20.473 Y80.679 E0.22956
G1 X19.567 Y80.91 E0.07774
G1 X19.283 Y80.975 E0.02423
G1 X16.655 Y81.553 E0.22374
G1 X15.712 Y81.746 E0.08004
G1 X15.324 Y81.816 E0.03278
G1 X12.727 Y82.257 E0.21903
G1 X11.668 Y82.42 E0.08909
G1 X11.428 Y82.452 E0.02013
G1 X8.716 Y82.779 E0.22714
G1 X7.728 Y82.883 E0.08261
G1 X7.453 Y82.906 E0.02295
G1 X4.753 Y83.1 E0.22508
G1 X3.727 Y83.159 E0.08545
G1 X3.425 Y83.169 E0.02513
G1 X0.751 Y83.233 E0.22241
G1 X-.25 Y83.242 E0.08324
G1 X-.615 Y83.236 E0.03035
G1 X-3.273 Y83.173 E0.22108
G1 X-4.146 Y83.14 E0.07264
G1 X-4.605 Y83.112 E0.03824
G1 X-7.261 Y82.919 E0.22143
G1 X-8.243 Y82.833 E0.08197
G1 X-8.549 Y82.8 E0.02559
G1 X-11.185 Y82.481 E0.22078
G1 X-12.146 Y82.351 E0.08064
G1 X-12.572 Y82.283 E0.03587
G1 X-15.167 Y81.843 E0.21885
G1 X-16.121 Y81.666 E0.08068
G1 X-16.535 Y81.579 E0.03518
G1 X-19.096 Y81.015 E0.21805
G1 X-20.052 Y80.791 E0.08164
G1 X-20.3 Y80.728 E0.02128
G1 X-22.961 Y80.007 E0.22924
G1 X-23.927 Y79.729 E0.08358
G1 X-24.194 Y79.646 E0.02325
G1 X-26.763 Y78.816 E0.22449
G1 X-27.626 Y78.524 E0.07576
G1 X-28.079 Y78.359 E0.04009
G1 X-30.523 Y77.437 E0.2172
G1 X-31.185 Y77.176 E0.05917
G1 X-31.643 Y76.953 E0.04236
G1 X-32.06 Y76.661 E0.04233
G1 X-32.427 Y76.307 E0.0424
G1 X-32.734 Y75.9 E0.04239
G1 X-32.862 Y75.679 E0.02124
G1 X-33.232 Y74.984 E0.06547
G1 X-33.869 Y73.746 E0.11577
G1 X-35.176 Y71.374 E0.22519
G1 X-36.583 Y68.984 E0.23061
G1 X-38.029 Y66.677 E0.22639
G1 X-39.541 Y64.412 E0.22644
G1 X-41.127 Y62.175 E0.22801
G1 X-42.765 Y60 E0.2264
G1 X-44.493 Y57.833 E0.23046
G1 X-46.248 Y55.757 E0.22604
G1 X-48.078 Y53.711 E0.22825
G1 X-49.931 Y51.753 E0.22416
G1 X-51.892 Y49.798 E0.23025
G1 X-53.884 Y47.918 E0.22775
G1 X-55.921 Y46.105 E0.22675
G1 X-58.037 Y44.325 E0.22992
G1 X-60.145 Y42.65 E0.22388
G1 X-62.37 Y40.985 E0.23107
G1 X-64.588 Y39.419 E0.22576
G1 X-66.857 Y37.912 E0.22649
G1 X-69.197 Y36.451 E0.22938
G1 X-71.54 Y35.08 E0.22572
G1 X-73.951 Y33.757 E0.22867
G1 X-75.622 Y32.894 E0.15638
G1 X-76.055 Y32.625 E0.04239
G1 X-76.441 Y32.292 E0.04239
G1 X-76.77 Y31.903 E0.04236
G1 X-77.038 Y31.466 E0.04263
G1 X-77.227 Y31.063 E0.03701
G1 X-77.439 Y30.52 E0.04847
G1 X-78.31 Y28.209 E0.20536
G1 X-78.669 Y27.209 E0.08835
G1 X-78.763 Y26.928 E0.02464
G1 X-79.585 Y24.379 E0.2227
G1 X-79.884 Y23.405 E0.08472
G1 X-79.958 Y23.138 E0.02304
G1 X-80.679 Y20.473 E0.22956
G1 X-80.91 Y19.567 E0.07774
G1 X-80.975 Y19.283 E0.02423
G1 X-81.553 Y16.655 E0.22374
G1 X-81.746 Y15.712 E0.08004
G1 X-81.816 Y15.324 E0.03278
G1 X-82.257 Y12.727 E0.21903
G1 X-82.42 Y11.668 E0.08909
G1 X-82.452 Y11.428 E0.02013
G1 X-82.779 Y8.716 E0.22714
G1 X-82.883 Y7.728 E0.08261
G1 X-82.906 Y7.453 E0.02295
G1 X-83.1 Y4.753 E0.22508
G1 X-83.159 Y3.727 E0.08545
G1 X-83.169 Y3.425 E0.02513
G1 X-83.233 Y0.751 E0.22241
G1 X-83.242 Y-.25 E0.08324
G1 X-83.236 Y-.615 E0.03035
G1 X-83.173 Y-3.273 E0.22108
G1 X-83.14 Y-4.146 E0.07264
G1 X-83.112 Y-4.605 E0.03824
G1 X-82.919 Y-7.261 E0.22143
G1 X-82.833 Y-8.25 E0.08255
G1 X-82.792 Y-8.615 E0.03054
G1 X-82.481 Y-11.185 E0.21526
G1 X-82.351 Y-12.146 E0.08064
G1 X-82.283 Y-12.572 E0.03587
G1 X-81.843 Y-15.167 E0.21885
G1 X-81.666 Y-16.121 E0.08068
G1 X-81.579 Y-16.535 E0.03518
G1 X-81.015 Y-19.096 E0.21805
G1 X-80.791 Y-20.052 E0.08164
G1 X-80.728 Y-20.3 E0.02128
G1 X-80.007 Y-22.961 E0.22924
G1 X-79.729 Y-23.927 E0.08358
G1 X-79.646 Y-24.194 E0.02325
G1 X-78.816 Y-26.763 E0.22449
G1 X-78.524 Y-27.626 E0.07576
G1 X-78.359 Y-28.079 E0.04009
G1 X-77.432 Y-30.538 E0.21851
G1 X-77.175 Y-31.188 E0.05812
G1 X-76.951 Y-31.646 E0.04239
G1 X-76.659 Y-32.063 E0.04233
G1 X-76.304 Y-32.429 E0.0424
G1 X-75.68 Y-32.862 E0.06315
G1 X-75.036 Y-33.204 E0.06063
G1 X-73.76 Y-33.862 E0.11938
G1 X-71.374 Y-35.176 E0.22649
G1 X-68.984 Y-36.583 E0.23061
G1 X-66.677 Y-38.029 E0.22639
G1 X-64.412 Y-39.541 E0.22644
G1 X-62.175 Y-41.127 E0.22801
G1 X-60 Y-42.765 E0.2264
G1 X-57.833 Y-44.493 E0.23046
G1 X-55.757 Y-46.248 E0.22604
G1 X-53.711 Y-48.078 E0.22825
G1 X-51.753 Y-49.931 E0.22416
G1 X-49.798 Y-51.892 E0.23025
G1 X-47.918 Y-53.884 E0.22775
G1 X-46.105 Y-55.921 E0.22675
G1 X-44.325 Y-58.037 E0.22992
G1 X-42.65 Y-60.145 E0.22388
G1 X-40.985 Y-62.37 E0.23107
G1 X-39.43 Y-64.573 E0.22422
G1 X-37.901 Y-66.874 E0.22972
G1 X-36.451 Y-69.197 E0.2277
G1 X-35.07 Y-71.556 E0.22729
G1 X-33.766 Y-73.934 E0.22551
G1 X-32.894 Y-75.622 E0.15798
G1 X-32.625 Y-76.055 E0.04239
G1 X-32.292 Y-76.441 E0.04239
G1 X-31.903 Y-76.77 E0.04236
G1 X-31.466 Y-77.038 E0.04263
G1 X-30.606 Y-77.406 E0.07778
G1 X-28.209 Y-78.31 E0.21301
G1 X-27.209 Y-78.669 E0.08835
G1 X-26.928 Y-78.763 E0.02464
G1 X-24.379 Y-79.585 E0.2227
G1 X-23.405 Y-79.884 E0.08472
G1 X-23.138 Y-79.958 E0.02304
G1 X-20.473 Y-80.679 E0.22956
G1 X-19.567 Y-80.91 E0.07774
G1 X-19.283 Y-80.975 E0.02423
G1 X-16.655 Y-81.553 E0.22374
G1 X-15.712 Y-81.746 E0.08004
G1 X-15.324 Y-81.816 E0.03278
G1 X-12.727 Y-82.257 E0.21903
G1 X-11.668 Y-82.42 E0.08909
G1 X-11.428 Y-82.452 E0.02013
G1 X-8.716 Y-82.779 E0.22714
G1 X-7.728 Y-82.883 E0.08261
G1 X-7.453 Y-82.906 E0.02295
G1 X-4.753 Y-83.1 E0.22508
G1 X-3.727 Y-83.159 E0.08545
G1 X-3.425 Y-83.169 E0.02513
G1 X-.751 Y-83.233 E0.22241
G1 X0.25 Y-83.242 E0.08324
G1 X0.615 Y-83.236 E0.03035
G1 X3.273 Y-83.173 E0.22108
G1 X4.228 Y-83.136 E0.07947
G1 X4.606 Y-83.112 E0.03149
