;FLAVOR:RepRap
;TIME:2042
;Filament used: 7.46146m
;Layer height: 0.3
;MINX:-43.75
;MINY:-13.75
;MINZ:0.4
;MAXX:43.75
;MAXY:13.75
;MAXZ:19.9
;POSTPROCESSED
;Generated with Cura_SteamEngine 4.13.1
T0
M190 S80
M104 S235
M109 S235
M82 ;absolute extrusion mode
G28 ;Home
G1 Z15.0 F6000 ;Move the platform down 15mm
;Prime the extruder
G92 E0
G1 F200 E3
G92 E0
M83 ;relative extrusion mode
G1 F1500 E-6.5
;LAYER_COUNT:66
;LAYER:0
M107 P1
M204 T5000
M566 X1800 Y1800
G0 F3600 X-39.341 Y13.75 Z0.4
M204 P3000
M566 X1200 Y1200
;TYPE:SKIRT
G1 F1500 E6.5
G1 F3000 X-40.039 Y13.741 E0.05804
G1 X-40.585 Y13.694 E0.04557
G1 X-41.117 Y13.568 E0.04546
G1 X-41.626 Y13.366 E0.04553
G1 X-42.1 Y13.092 E0.04552
G1 X-42.529 Y12.752 E0.04552
G1 X-42.904 Y12.353 E0.04553
G1 X-43.217 Y11.904 E0.04551
G1 X-43.461 Y11.414 E0.04552
G1 X-43.631 Y10.894 E0.04549
G1 X-43.74 Y10.092 E0.0673
G1 X-43.75 Y9.658 E0.0361
G1 X-43.75 Y-9.377 E1.58277
G1 X-43.741 Y-10.042 E0.0553
G1 X-43.693 Y-10.587 E0.04549
G1 X-43.567 Y-11.12 E0.04554
G1 X-43.365 Y-11.628 E0.04546
G1 X-43.09 Y-12.102 E0.04557
G1 X-42.75 Y-12.531 E0.04552
G1 X-42.351 Y-12.905 E0.04547
G1 X-41.902 Y-13.218 E0.04551
G1 X-41.412 Y-13.462 E0.04552
G1 X-40.891 Y-13.631 E0.04554
G1 X-40.096 Y-13.74 E0.06672
G1 X-39.67 Y-13.75 E0.03543
G1 X39.347 Y-13.75 E6.57029
G1 X40.045 Y-13.74 E0.05804
G1 X40.59 Y-13.692 E0.04549
G1 X41.122 Y-13.565 E0.04548
G1 X41.631 Y-13.362 E0.04557
G1 X42.104 Y-13.088 E0.04545
G1 X42.533 Y-12.747 E0.04557
G1 X42.907 Y-12.348 E0.04547
G1 X43.219 Y-11.898 E0.04553
G1 X43.463 Y-11.408 E0.04552
G1 X43.632 Y-10.887 E0.04554
G1 X43.74 Y-10.095 E0.06646
G1 X43.75 Y-9.67 E0.03535
G1 X43.75 Y9.31 E1.57819
G1 X43.741 Y10.037 E0.06045
G1 X43.694 Y10.583 E0.04557
G1 X43.568 Y11.116 E0.04554
G1 X43.367 Y11.624 E0.04543
G1 X43.093 Y12.098 E0.04552
G1 X42.753 Y12.527 E0.04552
G1 X42.354 Y12.902 E0.04553
G1 X41.905 Y13.216 E0.04556
G1 X41.416 Y13.46 E0.04544
G1 X40.895 Y13.63 E0.04557
G1 X40.096 Y13.74 E0.06706
G1 X39.67 Y13.75 E0.03543
G1 X-39.341 Y13.75 E6.56979
M566 X1800 Y1800
G0 F3600 X-39.335 Y13.25
M566 X1200 Y1200
G1 F3000 X-40.033 Y13.241 E0.05804
G1 X-40.54 Y13.194 E0.04234
G1 X-41.034 Y13.069 E0.04237
G1 X-41.502 Y12.868 E0.04235
G1 X-41.934 Y12.597 E0.0424
G1 X-42.317 Y12.261 E0.04236
G1 X-42.643 Y11.87 E0.04233
G1 X-42.904 Y11.432 E0.0424
G1 X-43.093 Y10.959 E0.04235
G1 X-43.207 Y10.462 E0.0424
G1 X-43.249 Y9.746 E0.05964
G1 X-43.25 Y-9.37 E1.5895
G1 X-43.241 Y-10.035 E0.0553
G1 X-43.194 Y-10.542 E0.04234
G1 X-43.068 Y-11.036 E0.04239
G1 X-42.867 Y-11.504 E0.04235
G1 X-42.595 Y-11.935 E0.04238
G1 X-42.259 Y-12.318 E0.04236
G1 X-41.868 Y-12.644 E0.04233
G1 X-41.43 Y-12.905 E0.0424
G1 X-40.957 Y-13.094 E0.04235
G1 X-40.46 Y-13.207 E0.04238
G1 X-39.761 Y-13.249 E0.05823
G1 X39.34 Y-13.25 E6.57727
G1 X40.038 Y-13.24 E0.05804
G1 X40.545 Y-13.192 E0.04235
G1 X41.039 Y-13.067 E0.04237
G1 X41.507 Y-12.865 E0.04238
G1 X41.937 Y-12.593 E0.04231
G1 X42.32 Y-12.257 E0.04236
G1 X42.646 Y-11.865 E0.04239
G1 X42.906 Y-11.427 E0.04235
G1 X43.095 Y-10.954 E0.04235
G1 X43.207 Y-10.457 E0.04236
G1 X43.249 Y-9.761 E0.05798
G1 X43.25 Y9.304 E1.58526
G1 X43.241 Y10.031 E0.06045
G1 X43.195 Y10.539 E0.04241
G1 X43.07 Y11.033 E0.04237
G1 X42.869 Y11.501 E0.04235
G1 X42.598 Y11.932 E0.04233
G1 X42.262 Y12.316 E0.04243
G1 X41.871 Y12.642 E0.04233
G1 X41.433 Y12.903 E0.0424
G1 X40.961 Y13.093 E0.04231
G1 X40.464 Y13.206 E0.04238
G1 X39.761 Y13.249 E0.05856
G1 X-39.335 Y13.25 E6.57686
M566 X1800 Y1800
G1 F1500 E-6.5
;MESH:Dicotomy-LimitSwHump.3mf
G0 F3600 X-39.236 Y10.665
G0 X-39.236 Y9.236
G0 X-37.25 Y7.25
M566 X1200 Y1200
;TYPE:WALL-INNER
G1 F1500 E6.5
G1 F3000 X-37.25 Y1.994 E0.43704
G1 X-37.25 Y1.468 E0.04374
G1 X-37.25 Y0.335 E0.09421
G1 X-37.02 Y1.468 E0.02323
G1 X-36.767 Y1.929 E0.03228
G1 X-36.403 Y2.591 E0.06282
G1 X-35.487 Y3.48 E0.10614
G1 X-34.365 Y4.054 E0.10479
G1 X-33.134 Y4.275 E0.10399
G1 X-32.041 Y4.16 E0.09138
G1 X-31.043 Y3.796 E0.08833
G1 X-30.136 Y3.172 E0.09154
G1 X-29.346 Y2.227 E0.10242
G1 X-28.853 Y1.048 E0.10626
G1 X-28.727 Y-.222 E0.10612
G1 X-28.98 Y-1.469 E0.1058
G1 X-29.598 Y-2.593 E0.10666
G1 X-30.509 Y-3.48 E0.10572
G1 X-31.638 Y-4.059 E0.1055
G1 X-32.896 Y-4.275 E0.10613
G1 X-34.114 Y-4.128 E0.10201
G1 X-35.14 Y-3.695 E0.0926
G1 X-35.985 Y-3.049 E0.08844
G1 X-36.664 Y-2.202 E0.09027
G1 X-37.147 Y-1.048 E0.10402
G1 X-37.25 Y-0.01 E0.08673
G1 X-37.25 Y-1.048 E0.00882
G1 X-37.25 Y-2.036 E0.05147
G1 X-37.25 Y-7.25 E0.43355
G1 X37.25 Y-7.25 E6.1947
G1 X37.25 Y-1.992 E0.4372
G1 X37.25 Y-1.464 E0.0439
G1 X37.25 Y-.331 E0.09421
G1 X37.021 Y-1.464 E0.02307
G1 X36.767 Y-1.927 E0.03238
G1 X36.402 Y-2.592 E0.06308
G1 X35.491 Y-3.48 E0.10578
G1 X34.362 Y-4.059 E0.1055
G1 X33.104 Y-4.275 E0.10613
G1 X31.886 Y-4.128 E0.10201
G1 X30.86 Y-3.695 E0.0926
G1 X30.015 Y-3.049 E0.08844
G1 X29.336 Y-2.202 E0.09027
G1 X28.854 Y-1.059 E0.10315
G1 X28.727 Y0.217 E0.10662
G1 X28.979 Y1.462 E0.10562
G1 X29.599 Y2.598 E0.10761
G1 X30.513 Y3.48 E0.10561
G1 X31.635 Y4.054 E0.10479
G1 X32.866 Y4.275 E0.10399
G1 X33.959 Y4.16 E0.09138
G1 X34.957 Y3.796 E0.08833
G1 X35.864 Y3.172 E0.09154
G1 X36.654 Y2.227 E0.10242
G1 X37.146 Y1.059 E0.10538
G1 X37.25 Y0.014 E0.08732
G1 X37.25 Y1.059 E0.00896
G1 X37.25 Y2.039 E0.05114
G1 X37.25 Y7.25 E0.4333
G1 X-37.25 Y7.25 E6.1947
M566 X1800 Y1800
G0 F3600 X-37.75 Y7.75
M566 X1200 Y1200
G1 F3000 X-37.75 Y-7.75 E1.28883
G1 X37.75 Y-7.75 E6.27785
G1 X37.75 Y7.75 E1.28883
G1 X-37.75 Y7.75 E6.27785
M566 X1800 Y1800
G0 F3600 X-35.193 Y3.069
M566 X1200 Y1200
G1 F3000 X-34.204 Y3.575 E0.09237
G1 X-33.116 Y3.77 E0.09191
G1 X-32.154 Y3.669 E0.08043
G1 X-31.274 Y3.348 E0.07789
G1 X-30.476 Y2.799 E0.08054
G1 X-29.778 Y1.964 E0.09049
G1 X-29.343 Y0.924 E0.09374
G1 X-29.232 Y-.196 E0.09358
G1 X-29.455 Y-1.295 E0.09324
G1 X-30 Y-2.287 E0.09411
G1 X-30.804 Y-3.069 E0.09326
G1 X-31.798 Y-3.579 E0.0929
G1 X-32.909 Y-3.77 E0.09374
G1 X-33.984 Y-3.64 E0.09004
G1 X-34.887 Y-3.259 E0.08149
G1 X-35.633 Y-2.689 E0.07806
G1 X-36.23 Y-1.944 E0.07938
G1 X-36.657 Y-.924 E0.09195
G1 X-36.768 Y0.196 E0.09358
G1 X-36.545 Y1.294 E0.09316
G1 X-36.001 Y2.285 E0.094
G1 X-35.193 Y3.069 E0.09361
M566 X1800 Y1800
G0 F3600 X29.232 Y0.192
M566 X1200 Y1200
G1 F3000 X29.454 Y1.289 E0.09306
G1 X30.001 Y2.291 E0.09492
G1 X30.807 Y3.069 E0.09315
G1 X31.796 Y3.575 E0.09237
G1 X32.884 Y3.77 E0.09191
G1 X33.846 Y3.669 E0.08043
G1 X34.726 Y3.348 E0.07789
G1 X35.524 Y2.799 E0.08054
G1 X36.222 Y1.964 E0.09049
G1 X36.656 Y0.934 E0.09294
G1 X36.768 Y-.192 E0.09409
G1 X36.546 Y-1.29 E0.09315
G1 X36 Y-2.286 E0.09445
G1 X35.196 Y-3.069 E0.09332
G1 X34.202 Y-3.579 E0.0929
G1 X33.091 Y-3.77 E0.09374
G1 X32.016 Y-3.64 E0.09004
G1 X31.113 Y-3.259 E0.08149
G1 X30.367 Y-2.689 E0.07806
G1 X29.77 Y-1.944 E0.07938
G1 X29.344 Y-.934 E0.09115
G1 X29.232 Y0.192 E0.09409
M566 X1800 Y1800
G0 F3600 X29.737 Y0.167
M566 X1200 Y1200
G1 F3000 X29.929 Y1.116 E0.08051
G1 X30.403 Y1.984 E0.08223
G1 X31.101 Y2.658 E0.08068
G1 X31.957 Y3.096 E0.07995
G1 X32.902 Y3.265 E0.07982
G1 X33.733 Y3.178 E0.06948
G1 X34.495 Y2.9 E0.06745
G1 X35.184 Y2.426 E0.06954
G1 X35.79 Y1.701 E0.07857
G1 X36.166 Y0.809 E0.08049
G1 X36.263 Y-.167 E0.08155
G1 X36.071 Y-1.116 E0.08051
G1 X35.598 Y-1.98 E0.0819
G1 X34.901 Y-2.658 E0.08085
G1 X34.042 Y-3.099 E0.08029
G1 X33.078 Y-3.265 E0.08134
G1 X32.146 Y-3.152 E0.07806
G1 X31.366 Y-2.823 E0.07039
G1 X30.719 Y-2.329 E0.06769
G1 X30.204 Y-1.686 E0.0685
G1 X29.834 Y-.809 E0.07915
G1 X29.737 Y0.167 E0.08155
M566 X1800 Y1800
G0 F3600 X38.25 Y8.25
M566 X1200 Y1200
G1 F3000 X-38.25 Y8.25 E6.361
G1 X-38.25 Y-8.25 E1.37198
G1 X38.25 Y-8.25 E6.361
G1 X38.25 Y8.25 E1.37198
M566 X1800 Y1800
G0 F3600 X-29.737 Y-.17
M566 X1200 Y1200
G1 F3000 X-29.93 Y-1.121 E0.08069
G1 X-30.402 Y-1.981 E0.08157
G1 X-31.099 Y-2.658 E0.08079
G1 X-31.958 Y-3.099 E0.08029
G1 X-32.922 Y-3.265 E0.08134
G1 X-33.854 Y-3.152 E0.07806
G1 X-34.634 Y-2.823 E0.07039
G1 X-35.281 Y-2.329 E0.06769
G1 X-35.796 Y-1.686 E0.0685
G1 X-36.167 Y-.8 E0.07987
G1 X-36.263 Y0.17 E0.08105
G1 X-36.07 Y1.12 E0.08061
G1 X-35.599 Y1.979 E0.08146
G1 X-34.899 Y2.658 E0.08109
G1 X-34.043 Y3.096 E0.07995
G1 X-33.098 Y3.265 E0.07982
G1 X-32.267 Y3.178 E0.06948
G1 X-31.505 Y2.9 E0.06745
G1 X-30.816 Y2.426 E0.06954
G1 X-30.21 Y1.701 E0.07857
G1 X-29.833 Y0.8 E0.08121
G1 X-29.737 Y-.17 E0.08105
M566 X1800 Y1800
G0 F3600 X-30.242 Y-.144
M566 X1200 Y1200
G1 F3000 X-30.405 Y-.947 E0.06813
G1 X-30.804 Y-1.675 E0.06903
G1 X-31.394 Y-2.247 E0.06833
G1 X-32.118 Y-2.619 E0.06768
G1 X-32.935 Y-2.76 E0.06894
G1 X-33.724 Y-2.664 E0.06609
G1 X-34.381 Y-2.387 E0.05929
G1 X-34.929 Y-1.969 E0.05731
G1 X-35.362 Y-1.428 E0.05762
G1 X-35.677 Y-.676 E0.06779
G1 X-35.758 Y0.144 E0.06852
G1 X-35.595 Y0.946 E0.06805
G1 X-35.197 Y1.673 E0.06892
G1 X-34.605 Y2.247 E0.06856
G1 X-33.882 Y2.617 E0.06753
G1 X-33.08 Y2.76 E0.06774
G1 X-32.38 Y2.687 E0.05852
G1 X-31.736 Y2.452 E0.057
G1 X-31.156 Y2.053 E0.05854
G1 X-30.642 Y1.438 E0.06665
G1 X-30.323 Y0.676 E0.06869
G1 X-30.242 Y-.144 E0.06852
M566 X1800 Y1800
G0 F3600 X-31.081 Y-1.267
G0 X-38.75 Y-8.75
M566 X1200 Y1200
G1 F3000 X38.75 Y-8.75 E6.44415
G1 X38.75 Y8.75 E1.45513
G1 X-38.75 Y8.75 E6.44415
G1 X-38.75 Y-8.75 E1.45513
M566 X1800 Y1800
G0 F3600 X30.242 Y0.142
M566 X1200 Y1200
G1 F3000 X30.404 Y0.943 E0.06795
G1 X30.805 Y1.677 E0.06955
G1 X31.395 Y2.247 E0.06821
G1 X32.118 Y2.617 E0.06753
G1 X32.92 Y2.76 E0.06774
G1 X33.62 Y2.687 E0.05852
G1 X34.264 Y2.452 E0.057
G1 X34.844 Y2.053 E0.05854
G1 X35.358 Y1.438 E0.06665
G1 X35.676 Y0.684 E0.06804
G1 X35.758 Y-.142 E0.06902
G1 X35.596 Y-.943 E0.06795
G1 X35.196 Y-1.674 E0.06929
G1 X34.606 Y-2.247 E0.06839
G1 X33.882 Y-2.619 E0.06768
G1 X33.065 Y-2.76 E0.06894
G1 X32.276 Y-2.664 E0.06609
G1 X31.619 Y-2.387 E0.05929
G1 X31.071 Y-1.969 E0.05731
G1 X30.638 Y-1.428 E0.05762
G1 X30.324 Y-.684 E0.06715
G1 X30.242 Y0.142 E0.06902
M566 X1800 Y1800
G0 F3600 X30.747 Y0.117
M566 X1200 Y1200
G1 F3000 X30.879 Y0.77 E0.0554
G1 X31.207 Y1.37 E0.05686
G1 X31.689 Y1.836 E0.05575
G1 X32.279 Y2.138 E0.05511
G1 X32.938 Y2.255 E0.05565
G1 X33.507 Y2.196 E0.04757
G1 X34.033 Y2.004 E0.04656
G1 X34.504 Y1.68 E0.04754
G1 X34.926 Y1.175 E0.05472
G1 X35.186 Y0.559 E0.0556
G1 X35.253 Y-.117 E0.05649
G1 X35.121 Y-.77 E0.0554
G1 X34.794 Y-1.368 E0.05667
G1 X34.311 Y-1.836 E0.05592
G1 X33.721 Y-2.139 E0.05515
G1 X33.052 Y-2.255 E0.05646
G1 X32.406 Y-2.176 E0.05412
G1 X31.872 Y-1.951 E0.04818
G1 X31.423 Y-1.609 E0.04693
G1 X31.072 Y-1.17 E0.04674
G1 X30.814 Y-.559 E0.05515
G1 X30.747 Y0.117 E0.05649
M566 X1800 Y1800
G0 F3600 X30.648 Y0.122
G0 X30.842 Y0.783
G0 X31.142 Y1.332
G0 X39.18 Y9.18
G0 X39.25 Y9.25
M566 X1200 Y1200
G1 F3000 X-39.25 Y9.25 E6.5273
G1 X-39.25 Y-9.25 E1.53828
G1 X39.25 Y-9.25 E6.5273
G1 X39.25 Y9.25 E1.53828
M566 X1800 Y1800
G0 F3600 X39.18 Y9.18
G0 X-30.648 Y-.123
G0 X-30.747 Y-.118
M566 X1200 Y1200
G1 F3000 X-30.88 Y-.773 E0.05557
G1 X-31.206 Y-1.368 E0.05641
G1 X-31.689 Y-1.836 E0.05592
G1 X-32.279 Y-2.139 E0.05515
G1 X-32.948 Y-2.255 E0.05646
G1 X-33.594 Y-2.176 E0.05412
G1 X-34.128 Y-1.951 E0.04818
G1 X-34.577 Y-1.609 E0.04693
G1 X-34.928 Y-1.17 E0.04674
G1 X-35.187 Y-.552 E0.05572
G1 X-35.253 Y0.118 E0.05598
G1 X-35.12 Y0.772 E0.05549
G1 X-34.795 Y1.367 E0.05637
G1 X-34.311 Y1.836 E0.05604
G1 X-33.721 Y2.138 E0.05511
G1 X-33.062 Y2.255 E0.05565
G1 X-32.493 Y2.196 E0.04757
G1 X-31.967 Y2.004 E0.04656
G1 X-31.496 Y1.68 E0.04754
G1 X-31.074 Y1.175 E0.05472
G1 X-30.813 Y0.552 E0.05616
G1 X-30.747 Y-.118 E0.05598
M566 X1800 Y1800
G0 F3600 X-31.252 Y-0.092
M566 X1200 Y1200
;TYPE:WALL-OUTER
G1 F3000 X-31.355 Y-.599 E0.04302
G1 X-31.608 Y-1.062 E0.04387
G1 X-31.983 Y-1.425 E0.0434
G1 X-32.44 Y-1.659 E0.04269
G1 X-32.961 Y-1.75 E0.04398
G1 X-33.464 Y-1.688 E0.04214
G1 X-33.876 Y-1.515 E0.03716
G1 X-34.225 Y-1.249 E0.03649
G1 X-34.494 Y-.912 E0.03585
G1 X-34.697 Y-.428 E0.04364
G1 X-34.748 Y0.092 E0.04345
G1 X-34.645 Y0.599 E0.04302
G1 X-34.393 Y1.061 E0.04376
G1 X-34.017 Y1.425 E0.04351
G1 X-33.56 Y1.659 E0.04269
G1 X-33.044 Y1.75 E0.04357
G1 X-32.606 Y1.705 E0.03661
G1 X-32.198 Y1.556 E0.03612
G1 X-31.836 Y1.307 E0.03653
G1 X-31.506 Y0.912 E0.0428
G1 X-31.303 Y0.428 E0.04364
G1 X-31.252 Y-0.092 E0.04345
M566 X1800 Y1800
G0 F3600 X-31.301 Y-.337
G0 X-30.713 Y-.455
G0 X-31.128 Y-1.298
G0 X-39.18 Y-9.18
G0 X-39.75 Y-9.75
M566 X1200 Y1200
G1 F3000 X39.75 Y-9.75 E6.61045
G1 X39.75 Y9.75 E1.62143
G1 X-39.75 Y9.75 E6.61045
G1 X-39.75 Y-9.75 E1.62143
M566 X1800 Y1800
G0 F3600 X-39.5 Y-9.75
G0 X-39.18 Y-9.18
G0 X30.656 Y0.033
G0 X31.252 Y0.092
M566 X1200 Y1200
G1 F3000 X31.354 Y0.597 E0.04284
G1 X31.609 Y1.063 E0.04417
G1 X31.983 Y1.425 E0.04328
G1 X32.44 Y1.659 E0.04269
G1 X32.956 Y1.75 E0.04357
G1 X33.394 Y1.705 E0.03661
G1 X33.802 Y1.556 E0.03612
G1 X34.164 Y1.307 E0.03653
G1 X34.494 Y0.912 E0.0428
G1 X34.696 Y0.434 E0.04315
G1 X34.748 Y-0.092 E0.04395
G1 X34.646 Y-.597 E0.04284
G1 X34.392 Y-1.062 E0.04406
G1 X34.017 Y-1.425 E0.0434
G1 X33.56 Y-1.659 E0.04269
G1 X33.039 Y-1.75 E0.04398
G1 X32.536 Y-1.688 E0.04214
G1 X32.124 Y-1.515 E0.03716
G1 X31.775 Y-1.249 E0.03649
G1 X31.506 Y-.912 E0.03585
G1 X31.304 Y-.434 E0.04315
G1 X31.252 Y0.092 E0.04395
M566 X1800 Y1800
G0 F3600 X31.301 Y0.337
G0 X30.713 Y0.454
G0 X28.233 Y0.242
M566 X1200 Y1200
;TYPE:SKIN
G1 F3000 X28.513 Y1.632 E0.1179
G1 X29.205 Y2.898 E0.11997
G1 X30.225 Y3.883 E0.1179
G1 X31.477 Y4.523 E0.11692
G1 X32.848 Y4.769 E0.11582
G1 X34.07 Y4.641 E0.10217
G1 X35.184 Y4.235 E0.09859
G1 X36.197 Y3.538 E0.10224
G1 X36.76 Y2.864 E0.07302
G1 X36.76 Y6.76 E0.32395
G1 X-36.76 Y6.76 E6.11321
G1 X-36.76 Y2.927 E0.31872
G1 X-35.775 Y3.882 E0.11408
G1 X-34.524 Y4.523 E0.11688
G1 X-33.152 Y4.769 E0.1159
G1 X-31.93 Y4.641 E0.10217
G1 X-30.816 Y4.235 E0.09859
G1 X-29.803 Y3.538 E0.10224
G1 X-28.923 Y2.484 E0.11417
G1 X-28.373 Y1.169 E0.11852
G1 X-28.233 Y-.247 E0.11831
G1 X-28.515 Y-1.64 E0.11818
G1 X-29.204 Y-2.893 E0.1189
G1 X-30.22 Y-3.882 E0.1179
G1 X-31.481 Y-4.529 E0.11785
G1 X-32.884 Y-4.77 E0.11837
G1 X-34.241 Y-4.606 E0.11366
G1 X-35.389 Y-4.122 E0.10359
G1 X-36.33 Y-3.402 E0.09852
G1 X-36.76 Y-2.865 E0.0572
G1 X-36.76 Y-6.76 E0.32387
G1 X36.76 Y-6.76 E6.11321
G1 X36.76 Y-2.927 E0.31872
G1 X35.781 Y-3.882 E0.11372
G1 X34.519 Y-4.529 E0.11792
G1 X33.116 Y-4.77 E0.11837
G1 X31.759 Y-4.606 E0.11366
G1 X30.611 Y-4.122 E0.10359
G1 X29.67 Y-3.402 E0.09852
G1 X28.911 Y-2.455 E0.10091
G1 X28.374 Y-1.181 E0.11496
G1 X28.233 Y0.242 E0.1189
M566 X1800 Y1800
G0 F3600 X36.534 Y-5.891
M566 X1200 Y1200
G1 F3000 X35.891 Y-6.535 E0.07567
M566 X1800 Y1800
G0 F3600 X35.184 Y-6.535
M566 X1200 Y1200
G1 F3000 X36.534 Y-5.184 E0.15881
M566 X1800 Y1800
G0 F3600 X36.534 Y-4.477
M566 X1200 Y1200
G1 F3000 X34.477 Y-6.535 E0.24195
M566 X1800 Y1800
G0 F3600 X33.77 Y-6.535
M566 X1200 Y1200
G1 F3000 X36.534 Y-3.77 E0.32508
G1 X36.622 Y-3.682
M566 X1800 Y1800
G0 F3600 X35.129 Y-4.468
M566 X1200 Y1200
G1 F3000 X33.062 Y-6.535 E0.24306
M566 X1800 Y1800
G0 F3600 X32.355 Y-6.535
M566 X1200 Y1200
G1 F3000 X34.053 Y-4.837 E0.19967
M566 X1800 Y1800
G0 F3600 X33.198 Y-4.985
M566 X1200 Y1200
G1 F3000 X31.648 Y-6.535 E0.18227
M566 X1800 Y1800
G0 F3600 X30.941 Y-6.535
M566 X1200 Y1200
G1 F3000 X32.547 Y-4.929 E0.18885
M566 X1800 Y1800
G0 F3600 X31.917 Y-4.852
M566 X1200 Y1200
G1 F3000 X30.234 Y-6.535 E0.19791
M566 X1800 Y1800
G0 F3600 X29.527 Y-6.535
M566 X1200 Y1200
G1 F3000 X31.373 Y-4.688 E0.21713
M566 X1800 Y1800
G0 F3600 X30.876 Y-4.478
M566 X1200 Y1200
G1 F3000 X28.82 Y-6.535 E0.24183
M566 X1800 Y1800
G0 F3600 X28.113 Y-6.535
M566 X1200 Y1200
G1 F3000 X30.401 Y-4.246 E0.26911
M566 X1800 Y1800
G0 F3600 X30.001 Y-3.939
M566 X1200 Y1200
G1 F3000 X27.406 Y-6.535 E0.30521
M566 X1800 Y1800
G0 F3600 X26.698 Y-6.535
M566 X1200 Y1200
G1 F3000 X29.6 Y-3.633 E0.34125
M566 X1800 Y1800
G0 F3600 X29.268 Y-3.258
M566 X1200 Y1200
G1 F3000 X25.991 Y-6.535 E0.38535
M566 X1800 Y1800
G0 F3600 X25.284 Y-6.535
M566 X1200 Y1200
G1 F3000 X28.953 Y-2.865 E0.43151
M566 X1800 Y1800
G0 F3600 X28.663 Y-2.448
M566 X1200 Y1200
G1 F3000 X24.577 Y-6.535 E0.48054
M566 X1800 Y1800
G0 F3600 X23.87 Y-6.535
M566 X1200 Y1200
