;FLAVOR:RepRap
;TIME:1336
;Filament used: 4.39688m
;Layer height: 0.3
;MINX:-33.026
;MINY:-33.75
;MINZ:0.4
;MAXX:37.185
;MAXY:33.75
;MAXZ:6.1
;POSTPROCESSED
;Generated with Cura_SteamEngine 4.13.1
T0
M190 S60
M104 S220
M109 S220
M82 ;absolute extrusion mode
G28 ;Home
G1 Z15.0 F6000 ;Move the platform down 15mm
;Prime the extruder
G92 E0
G1 F200 E3
G92 E0
M83 ;relative extrusion mode
G1 F1500 E-6.5
;LAYER_COUNT:20
;LAYER:0
M107 P1
M204 T5000
M566 X1800 Y1800
G0 F3600 X-27.133 Y-0.028 Z0.4
M204 P3000
M566 X1200 Y1200
;TYPE:SKIRT
G1 F1500 E6.5
G1 F3000 X-27.172 Y-2.747 E0.22611
G1 X-27.289 Y-5.465 E0.22621
G1 X-27.483 Y-8.187 E0.22691
G1 X-27.754 Y-10.915 E0.22795
G1 X-28.095 Y-13.566 E0.22225
G1 X-28.522 Y-16.28 E0.22845
G1 X-29.022 Y-18.968 E0.22734
G1 X-29.589 Y-21.596 E0.22355
G1 X-30.242 Y-24.257 E0.22783
G1 X-31.263 Y-27.888 E0.31363
G1 X-31.568 Y-28.899 E0.08781
G1 X-31.688 Y-29.433 E0.04551
G1 X-31.728 Y-29.979 E0.04552
G1 X-31.688 Y-30.525 E0.04552
G1 X-31.57 Y-31.059 E0.04547
G1 X-31.375 Y-31.57 E0.04548
G1 X-31.107 Y-32.048 E0.04557
G1 X-30.773 Y-32.481 E0.04547
G1 X-30.379 Y-32.861 E0.04552
G1 X-29.934 Y-33.18 E0.04553
G1 X-29.448 Y-33.431 E0.04548
G1 X-28.93 Y-33.608 E0.04552
G1 X-28.392 Y-33.708 E0.0455
G1 X-28.05 Y-33.73 E0.0285
G1 X-26.989 Y-33.75 E0.08824
G1 X-13.048 Y-33.75 E1.1592
G1 X-12.35 Y-33.74 E0.05804
G1 X-12.045 Y-33.723 E0.0254
G1 X-11.472 Y-33.667 E0.04787
G1 X-9.727 Y-33.469 E0.14603
G1 X-6.976 Y-33.236 E0.22957
G1 X-4.294 Y-33.085 E0.22336
G1 X-1.537 Y-33.008 E0.22933
G1 X1.186 Y-33.008 E0.22642
G1 X3.871 Y-33.085 E0.22335
G1 X6.589 Y-33.24 E0.22637
G1 X10.423 Y-33.588 E0.32011
G1 X11.485 Y-33.705 E0.08884
G1 X11.823 Y-33.727 E0.02816
G1 X13.011 Y-33.75 E0.0988
G1 X26.952 Y-33.75 E1.1592
G1 X27.652 Y-33.74 E0.05821
G1 X28.197 Y-33.692 E0.04549
G1 X28.729 Y-33.565 E0.04548
G1 X29.238 Y-33.362 E0.04557
G1 X29.711 Y-33.088 E0.04545
G1 X30.14 Y-32.747 E0.04557
G1 X30.514 Y-32.348 E0.04547
G1 X30.826 Y-31.898 E0.04553
G1 X31.109 Y-31.315 E0.05389
G1 X31.287 Y-30.863 E0.04039
G1 X32.235 Y-28.349 E0.22341
G1 X32.558 Y-27.453 E0.0792
G1 X32.676 Y-27.104 E0.03063
G1 X33.506 Y-24.529 E0.22496
G1 X33.781 Y-23.638 E0.07754
G1 X33.817 Y-23.513 E0.01082
G1 X34.607 Y-20.597 E0.25121
G1 X34.843 Y-19.67 E0.07954
G1 X34.903 Y-19.408 E0.02235
G1 X35.497 Y-16.702 E0.23036
G1 X35.696 Y-15.724 E0.08299
G1 X35.743 Y-15.463 E0.02205
G1 X36.206 Y-12.735 E0.23008
G1 X36.35 Y-11.803 E0.07842
G1 X36.401 Y-11.408 E0.03312
G1 X36.715 Y-8.803 E0.21817
G1 X36.824 Y-7.767 E0.08662
G1 X36.852 Y-7.426 E0.02845
G1 X37.043 Y-4.782 E0.22042
G1 X37.102 Y-3.744 E0.08645
G1 X37.112 Y-3.438 E0.02546
G1 X37.176 Y-.756 E0.22307
G1 X37.185 Y0.259 E0.0844
G1 X37.179 Y0.627 E0.0306
G1 X37.115 Y3.29 E0.22149
G1 X37.078 Y4.26 E0.08071
G1 X37.053 Y4.642 E0.03183
G1 X36.86 Y7.305 E0.22201
G1 X36.774 Y8.291 E0.0823
G1 X36.734 Y8.644 E0.02954
G1 X36.418 Y11.27 E0.21993
G1 X36.28 Y12.279 E0.08468
G1 X36.219 Y12.659 E0.032
G1 X35.777 Y15.26 E0.21937
G1 X35.589 Y16.276 E0.08591
G1 X35.536 Y16.526 E0.02125
G1 X34.951 Y19.195 E0.2272
G1 X34.709 Y20.213 E0.08701
G1 X34.649 Y20.444 E0.01985
G1 X33.931 Y23.101 E0.22885
G1 X33.652 Y24.069 E0.08377
G1 X33.566 Y24.346 E0.02412
G1 X32.733 Y26.924 E0.22527
G1 X32.426 Y27.83 E0.07954
G1 X32.318 Y28.127 E0.02628
G1 X31.345 Y30.709 E0.22943
G1 X31.093 Y31.349 E0.05719
G1 X30.856 Y31.842 E0.04548
G1 X30.55 Y32.296 E0.04552
G1 X30.18 Y32.7 E0.04555
G1 X29.756 Y33.046 E0.0455
G1 X29.286 Y33.326 E0.04549
G1 X28.781 Y33.536 E0.04548
G1 X28.103 Y33.692 E0.05785
G1 X27.498 Y33.745 E0.0505
G1 X27.065 Y33.75 E0.03601
G1 X12.659 Y33.75 E1.19786
G1 X11.962 Y33.74 E0.05796
G1 X11.168 Y33.676 E0.06624
G1 X9.307 Y33.465 E0.15573
G1 X6.56 Y33.232 E0.22923
G1 X3.879 Y33.081 E0.22328
G1 X1.121 Y33.004 E0.22942
G1 X-1.601 Y33.004 E0.22634
G1 X-4.286 Y33.081 E0.22335
G1 X-7.043 Y33.238 E0.22962
G1 X-9.729 Y33.467 E0.22415
G1 X-11.984 Y33.717 E0.18865
G1 X-12.502 Y33.745 E0.04313
G1 X-12.935 Y33.75 E0.03601
G1 X-27.348 Y33.75 E1.19845
G1 X-28.026 Y33.739 E0.05638
G1 X-28.571 Y33.69 E0.0455
G1 X-29.103 Y33.562 E0.0455
G1 X-29.611 Y33.358 E0.04552
G1 X-30.084 Y33.083 E0.04549
G1 X-30.512 Y32.741 E0.04555
G1 X-30.886 Y32.341 E0.04553
G1 X-31.243 Y31.81 E0.0532
G1 X-31.253 Y31.792 E0.00171
G1 X-31.483 Y31.296 E0.04546
G1 X-31.639 Y30.771 E0.04554
G1 X-31.716 Y30.229 E0.04552
G1 X-31.714 Y29.682 E0.04548
G1 X-31.578 Y28.933 E0.0633
G1 X-31.423 Y28.395 E0.04655
G1 X-30.948 Y26.841 E0.13512
G1 X-30.225 Y24.214 E0.22656
G1 X-29.579 Y21.57 E0.22632
G1 X-29.004 Y18.899 E0.22718
G1 X-28.509 Y16.233 E0.22547
G1 X-28.089 Y13.55 E0.22581
G1 X-27.744 Y10.841 E0.22707
G1 X-27.477 Y8.136 E0.22601
G1 X-27.285 Y5.416 E0.22673
G1 X-27.17 Y2.697 E0.22629
G1 X-27.133 Y-0.028 E0.22661
M566 X1800 Y1800
G0 F3600 X-26.633 Y-0.028
M566 X1200 Y1200
G1 F3000 X-26.673 Y-2.775 E0.22844
G1 X-26.789 Y-5.488 E0.22579
G1 X-26.984 Y-8.234 E0.22891
G1 X-27.256 Y-10.962 E0.22796
G1 X-27.6 Y-13.637 E0.22426
G1 X-28.031 Y-16.379 E0.2308
G1 X-28.529 Y-19.053 E0.22617
G1 X-29.103 Y-21.716 E0.22651
G1 X-29.753 Y-24.362 E0.22656
G1 X-30.782 Y-28.023 E0.31621
G1 X-31.09 Y-29.043 E0.0886
G1 X-31.198 Y-29.541 E0.04237
G1 X-31.227 Y-30.049 E0.04231
G1 X-31.177 Y-30.556 E0.04236
G1 X-31.047 Y-31.049 E0.04239
G1 X-30.843 Y-31.516 E0.04237
G1 X-30.568 Y-31.945 E0.04237
G1 X-30.229 Y-32.325 E0.04234
G1 X-29.835 Y-32.648 E0.04236
G1 X-29.395 Y-32.906 E0.04241
G1 X-28.921 Y-33.091 E0.04231
G1 X-28.423 Y-33.2 E0.04239
G1 X-28.04 Y-33.23 E0.03194
G1 X-26.989 Y-33.25 E0.08741
G1 X-13.055 Y-33.25 E1.15862
G1 X-12.357 Y-33.24 E0.05804
G1 X-12.093 Y-33.225 E0.02199
G1 X-11.528 Y-33.17 E0.0472
G1 X-9.754 Y-32.969 E0.14845
G1 X-7.046 Y-32.739 E0.22598
G1 X-4.3 Y-32.585 E0.22869
G1 X-1.551 Y-32.508 E0.22867
G1 X1.165 Y-32.508 E0.22584
G1 X3.913 Y-32.587 E0.22859
G1 X6.633 Y-32.742 E0.22654
G1 X10.471 Y-33.09 E0.32044
G1 X11.54 Y-33.208 E0.08943
G1 X11.833 Y-33.227 E0.02441
G1 X13.011 Y-33.25 E0.09797
G1 X26.944 Y-33.25 E1.15853
G1 X27.644 Y-33.24 E0.05821
G1 X28.152 Y-33.192 E0.04243
G1 X28.645 Y-33.067 E0.04229
G1 X29.113 Y-32.865 E0.04238
G1 X29.544 Y-32.593 E0.04238
G1 X29.927 Y-32.257 E0.04236
G1 X30.253 Y-31.865 E0.04239
G1 X30.591 Y-31.257 E0.05784
G1 X30.806 Y-30.72 E0.0481
G1 X31.764 Y-28.179 E0.2258
G1 X32.111 Y-27.217 E0.08504
G1 X32.2 Y-26.95 E0.0234
G1 X33.028 Y-24.381 E0.22443
G1 X33.335 Y-23.382 E0.0869
G1 X34.123 Y-20.473 E0.2506
G1 X34.355 Y-19.559 E0.07841
G1 X34.414 Y-19.301 E0.02201
G1 X35.007 Y-16.602 E0.22978
G1 X35.204 Y-15.635 E0.08206
G1 X35.25 Y-15.38 E0.02155
G1 X35.712 Y-12.658 E0.22957
G1 X35.854 Y-11.739 E0.07732
G1 X35.905 Y-11.348 E0.03279
G1 X36.218 Y-8.75 E0.21759
G1 X36.326 Y-7.726 E0.08562
G1 X36.354 Y-7.39 E0.02804
G1 X36.543 Y-4.753 E0.21983
G1 X36.602 Y-3.727 E0.08545
G1 X36.612 Y-3.426 E0.02504
G1 X36.676 Y-.751 E0.22249
G1 X36.685 Y0.252 E0.0834
G1 X36.679 Y0.615 E0.03019
G1 X36.616 Y3.272 E0.22099
G1 X36.579 Y4.228 E0.07955
G1 X36.555 Y4.606 E0.03149
G1 X36.362 Y7.262 E0.22143
G1 X36.277 Y8.235 E0.08121
G1 X36.238 Y8.584 E0.0292
G1 X35.922 Y11.203 E0.21935
G1 X35.786 Y12.2 E0.08367
G1 X35.726 Y12.575 E0.03158
G1 X35.285 Y15.169 E0.21879
G1 X35.1 Y16.173 E0.08489
G1 X35.048 Y16.419 E0.02091
G1 X34.465 Y19.08 E0.22651
G1 X34.225 Y20.088 E0.08616
G1 X34.166 Y20.314 E0.01942
G1 X33.45 Y22.963 E0.22817
G1 X33.174 Y23.922 E0.08298
G1 X33.091 Y24.192 E0.02349
G1 X32.259 Y26.764 E0.22477
G1 X31.927 Y27.742 E0.08588
G1 X31.85 Y27.951 E0.01852
G1 X30.88 Y30.526 E0.2288
G1 X30.628 Y31.166 E0.05719
G1 X30.405 Y31.624 E0.04236
G1 X30.113 Y32.041 E0.04233
G1 X29.759 Y32.408 E0.0424
G1 X29.352 Y32.715 E0.04239
G1 X28.903 Y32.954 E0.04229
G1 X28.421 Y33.121 E0.04242
G1 X27.887 Y33.216 E0.0451
G1 X27.06 Y33.25 E0.06882
G1 X12.666 Y33.25 E1.19687
G1 X11.969 Y33.24 E0.05796
G1 X11.216 Y33.178 E0.06282
G1 X9.339 Y32.965 E0.15707
G1 X6.63 Y32.735 E0.22606
G1 X3.885 Y32.581 E0.22861
G1 X1.135 Y32.504 E0.22875
G1 X-1.58 Y32.504 E0.22575
G1 X-4.328 Y32.583 E0.22859
G1 X-7.077 Y32.739 E0.22895
G1 X-9.788 Y32.97 E0.22624
G1 X-12.039 Y33.22 E0.18832
G1 X-12.94 Y33.25 E0.07496
G1 X-27.34 Y33.25 E1.19736
G1 X-28.018 Y33.239 E0.05638
G1 X-28.525 Y33.19 E0.04235
G1 X-29.018 Y33.064 E0.04231
G1 X-29.486 Y32.861 E0.04242
G1 X-29.916 Y32.588 E0.04235
G1 X-30.298 Y32.251 E0.04236
G1 X-30.623 Y31.859 E0.04234
G1 X-30.816 Y31.549 E0.03036
G1 X-31.028 Y31.086 E0.04234
G1 X-31.165 Y30.595 E0.04239
G1 X-31.223 Y30.089 E0.04235
G1 X-31.201 Y29.58 E0.04236
G1 X-31.098 Y29.071 E0.04318
G1 X-30.945 Y28.541 E0.04587
G1 X-30.468 Y26.982 E0.13556
G1 X-29.736 Y24.319 E0.22964
G1 X-29.093 Y21.69 E0.22505
G1 X-28.512 Y18.99 E0.22964
G1 X-28.018 Y16.331 E0.22488
G1 X-27.594 Y13.615 E0.22857
G1 X-27.245 Y10.887 E0.22868
G1 X-26.979 Y8.185 E0.22576
G1 X-26.785 Y5.437 E0.22907
G1 X-26.671 Y2.725 E0.2257
G1 X-26.633 Y-0.028 E0.22893
M566 X1800 Y1800
G1 F1500 E-6.5
;MESH:Dicotomy-clip.3mf
G0 F3600 X-21.425 Y-.149
G0 X-20.011 Y-.182
G0 X-19.007 Y0.00
M566 X1200 Y1200
;TYPE:WALL-INNER
G1 F1500 E6.5
G1 F3000 X-19.08 Y-3.185 E0.2649
G1 X-19.303 Y-6.321 E0.26142
G1 X-19.706 Y-9.685 E0.28172
G1 X-20.191 Y-12.587 E0.24465
G1 X-20.904 Y-15.893 E0.28122
G1 X-21.658 Y-18.735 E0.24449
G1 X-21.799 Y-19.191 E0.03969
G1 X-22.679 Y-21.967 E0.24215
G1 X-23.695 Y-24.717 E0.24377
G1 X-23.873 Y-25.159 E0.03962
G1 X-25.015 Y-27.852 E0.24323
G1 X-25.208 Y-28.25 E0.03678
G1 X-13.606 Y-28.25 E0.96471
G1 X-12.701 Y-25.851 E0.2132
G1 X-11.545 Y-22.276 E0.31242
G1 X-10.547 Y-18.588 E0.31769
G1 X-9.753 Y-14.975 E0.30759
G1 X-9.113 Y-11.21 E0.31755
G1 X-8.672 Y-7.55 E0.30653
G1 X-8.396 Y-3.728 E0.31863
G1 X-8.307 Y-0.006 E0.30957
G1 X-8.396 Y3.728 E0.31057
G1 X-8.671 Y7.538 E0.31763
G1 X-9.113 Y11.209 E0.30745
G1 X-9.753 Y14.972 E0.31739
G1 X-10.547 Y18.588 E0.30783
G1 X-11.541 Y22.258 E0.31616
G1 X-12.689 Y25.82 E0.31118
G1 X-13.606 Y28.25 E0.21596
G1 X-25.209 Y28.25 E0.96479
G1 X-25.016 Y27.856 E0.03648
G1 X-23.874 Y25.161 E0.24338
G1 X-23.696 Y24.718 E0.0397
G1 X-22.679 Y21.967 E0.24388
G1 X-21.66 Y18.741 E0.28131
G1 X-20.905 Y15.894 E0.24491
G1 X-20.191 Y12.587 E0.28131
G1 X-19.707 Y9.69 E0.24423
G1 X-19.647 Y9.217 E0.03965
G1 X-19.303 Y6.321 E0.2425
G1 X-19.079 Y3.186 E0.26134
G1 X-19.007 Y0.00 E0.26498
M566 X1800 Y1800
G0 F3600 X-16.825 Y0.013
M566 X1200 Y1200
G1 F3000 X-16.677 Y0.97 E0.08052
G1 X-16.273 Y1.809 E0.07743
G1 X-15.692 Y2.471 E0.07324
G1 X-14.9 Y2.973 E0.07797
G1 X-14.121 Y3.211 E0.06773
G1 X-13.299 Y3.25 E0.06843
G1 X-12.481 Y3.084 E0.0694
G1 X-11.652 Y2.649 E0.07785
G1 X-11.046 Y2.083 E0.06895
G1 X-10.602 Y1.384 E0.06886
G1 X-10.324 Y0.472 E0.07928
G1 X-10.326 Y-.478 E0.07899
G1 X-10.552 Y-1.272 E0.06864
G1 X-10.976 Y-2.001 E0.07012
G1 X-11.663 Y-2.662 E0.07927
G1 X-12.498 Y-3.089 E0.07798
G1 X-13.241 Y-3.236 E0.06298
G1 X-13.572 Y-3.256 E0.02757
G1 X-14.434 Y-3.144 E0.07228
G1 X-15.202 Y-2.815 E0.06947
G1 X-15.846 Y-2.324 E0.06734
G1 X-16.347 Y-1.688 E0.06732
G1 X-16.687 Y-.929 E0.06915
G1 X-16.825 Y0.013 E0.07916
M566 X1800 Y1800
G0 F3600 X-16.319 Y0.011
M566 X1200 Y1200
G1 F3000 X-16.194 Y0.82 E0.06807
G1 X-15.852 Y1.531 E0.0656
G1 X-15.364 Y2.087 E0.06151
G1 X-14.689 Y2.515 E0.06646
G1 X-14.035 Y2.715 E0.05687
G1 X-13.338 Y2.748 E0.05802
G1 X-12.65 Y2.608 E0.05838
G1 X-11.944 Y2.238 E0.06628
G1 X-11.434 Y1.761 E0.05806
G1 X-11.06 Y1.173 E0.05794
G1 X-10.824 Y0.398 E0.06736
G1 X-10.826 Y-.408 E0.06702
G1 X-11.016 Y-1.075 E0.05767
G1 X-11.373 Y-1.689 E0.05906
G1 X-11.956 Y-2.25 E0.06728
G1 X-12.664 Y-2.612 E0.06612
G1 X-13.305 Y-2.739 E0.05434
G1 X-13.555 Y-2.754 E0.02082
G1 X-14.301 Y-2.657 E0.06255
G1 X-14.948 Y-2.38 E0.05852
G1 X-15.492 Y-1.965 E0.05689
G1 X-15.916 Y-1.427 E0.05696
G1 X-16.202 Y-.788 E0.05821
G1 X-16.319 Y0.011 E0.06715
M566 X1800 Y1800
G0 F3600 X-19.507 Y0.00
M566 X1200 Y1200
G1 F3000 X-19.58 Y-3.162 E0.26299
G1 X-19.801 Y-6.274 E0.25942
G1 X-20.144 Y-9.152 E0.241
G1 X-20.201 Y-9.613 E0.03862
G1 X-20.682 Y-12.493 E0.24279
G1 X-21.39 Y-15.776 E0.27926
G1 X-22.139 Y-18.597 E0.24269
G1 X-22.276 Y-19.042 E0.03872
G1 X-23.152 Y-21.805 E0.24101
G1 X-24.161 Y-24.537 E0.24216
G1 X-24.335 Y-24.968 E0.03865
G1 X-25.471 Y-27.645 E0.24181
G1 X-26.005 Y-28.75 E0.10205
G1 X-13.26 Y-28.75 E1.05975
G1 X-12.229 Y-26.018 E0.2428
G1 X-11.062 Y-22.407 E0.31555
G1 X-10.064 Y-18.719 E0.31769
G1 X-9.26 Y-15.059 E0.31159
G1 X-8.62 Y-11.294 E0.31755
G1 X-8.173 Y-7.586 E0.31055
G1 X-7.897 Y-3.764 E0.31863
G1 X-7.807 Y-0.006 E0.31257
G1 X-7.897 Y3.764 E0.31357
G1 X-8.172 Y7.574 E0.31763
G1 X-8.62 Y11.293 E0.31147
G1 X-9.26 Y15.057 E0.31747
G1 X-10.064 Y18.719 E0.31175
G1 X-11.058 Y22.391 E0.31632
G1 X-12.221 Y25.997 E0.31505
G1 X-13.26 Y28.75 E0.24467
G1 X-26.005 Y28.75 E1.05975
G1 X-25.726 Y28.171 E0.05344
G1 X-25.471 Y27.649 E0.04831
G1 X-24.336 Y24.97 E0.24193
G1 X-24.162 Y24.538 E0.03873
G1 X-23.152 Y21.805 E0.24227
G1 X-22.14 Y18.602 E0.27931
G1 X-21.391 Y15.777 E0.24302
G1 X-20.682 Y12.493 E0.27936
G1 X-20.202 Y9.617 E0.24245
G1 X-20.143 Y9.156 E0.03864
G1 X-19.801 Y6.274 E0.24132
G1 X-19.579 Y3.163 E0.25934
G1 X-19.507 Y0.00 E0.26307
M566 X1800 Y1800
G0 F3600 X-20.007 Y0.00
M566 X1200 Y1200
G1 F3000 X-20.08 Y-3.138 E0.261
G1 X-20.299 Y-6.227 E0.2575
G1 X-20.64 Y-9.092 E0.23991
G1 X-20.696 Y-9.541 E0.03762
G1 X-21.173 Y-12.399 E0.24093
G1 X-21.876 Y-15.659 E0.2773
G1 X-22.62 Y-18.459 E0.2409
G1 X-22.753 Y-18.893 E0.03774
G1 X-23.625 Y-21.643 E0.23988
G1 X-24.628 Y-24.357 E0.24059
G1 X-24.797 Y-24.777 E0.03764
G1 X-25.927 Y-27.439 E0.24046
G1 X-26.801 Y-29.25 E0.1672
G1 X-12.914 Y-29.25 E1.15471
G1 X-11.753 Y-26.172 E0.27354
G1 X-10.579 Y-22.538 E0.31755
G1 X-9.581 Y-18.85 E0.31769
G1 X-8.767 Y-15.143 E0.31558
G1 X-8.127 Y-11.378 E0.31755
G1 X-7.674 Y-7.622 E0.31458
G1 X-7.398 Y-3.8 E0.31863
G1 X-7.307 Y-0.006 E0.31556
G1 X-7.398 Y3.8 E0.31656
G1 X-7.673 Y7.61 E0.31763
G1 X-8.127 Y11.377 E0.31549
G1 X-8.767 Y15.142 E0.31755
G1 X-9.581 Y18.85 E0.31566
G1 X-10.577 Y22.53 E0.317
G1 X-11.747 Y26.156 E0.31681
G1 X-12.914 Y29.25 E0.27496
G1 X-26.801 Y29.25 E1.15471
G1 X-26.177 Y27.954 E0.1196
G1 X-25.926 Y27.441 E0.04749
G1 X-24.798 Y24.779 E0.2404
G1 X-24.628 Y24.358 E0.03775
G1 X-23.625 Y21.643 E0.24067
G1 X-22.62 Y18.463 E0.27731
G1 X-21.877 Y15.66 E0.24112
G1 X-21.173 Y12.399 E0.2774
G1 X-20.697 Y9.544 E0.24067
G1 X-20.639 Y9.095 E0.03764
G1 X-20.299 Y6.227 E0.24015
G1 X-20.079 Y3.139 E0.25742
G1 X-20.007 Y0.00 E0.26108
M566 X1800 Y1800
G0 F3600 X-19.907 Y0.00
G0 X-15.913 Y0.009
G0 X-15.813 Y0.009
M566 X1200 Y1200
G1 F3000 X-15.711 Y0.67 E0.05561
G1 X-15.431 Y1.253 E0.05378
G1 X-15.036 Y1.703 E0.04979
G1 X-14.478 Y2.057 E0.05495
G1 X-13.949 Y2.219 E0.046
G1 X-13.377 Y2.246 E0.04761
G1 X-12.819 Y2.132 E0.04736
G1 X-12.236 Y1.827 E0.05471
G1 X-11.822 Y1.439 E0.04718
G1 X-11.518 Y0.962 E0.04703
G1 X-11.324 Y0.324 E0.05545
G1 X-11.326 Y-.337 E0.05496
G1 X-11.48 Y-.878 E0.04677
G1 X-11.77 Y-1.377 E0.04799
G1 X-12.249 Y-1.838 E0.05528
G1 X-12.83 Y-2.135 E0.05426
G1 X-13.369 Y-2.242 E0.04569
G1 X-13.537 Y-2.252 E0.01399
G1 X-14.168 Y-2.17 E0.05291
G1 X-14.694 Y-1.945 E0.04757
G1 X-15.138 Y-1.606 E0.04645
G1 X-15.485 Y-1.166 E0.04659
G1 X-15.717 Y-.647 E0.04727
G1 X-15.813 Y0.009 E0.05513
M566 X1800 Y1800
G0 F3600 X-15.307 Y0.007
M566 X1200 Y1200
;TYPE:WALL-OUTER
G1 F3000 X-15.228 Y0.521 E0.04324
G1 X-15.01 Y0.975 E0.04188
G1 X-14.708 Y1.319 E0.03806
G1 X-14.267 Y1.599 E0.04344
G1 X-13.863 Y1.723 E0.03514
G1 X-13.416 Y1.744 E0.03721
G1 X-12.988 Y1.656 E0.03633
G1 X-12.528 Y1.416 E0.04314
G1 X-12.21 Y1.117 E0.03629
G1 X-11.976 Y0.751 E0.03612
G1 X-11.824 Y0.251 E0.04345
G1 X-11.826 Y-.266 E0.04299
G1 X-11.944 Y-.681 E0.03588
G1 X-12.167 Y-1.065 E0.03692
G1 X-12.542 Y-1.426 E0.04328
G1 X-12.996 Y-1.658 E0.04239
G1 X-13.433 Y-1.745 E0.03705
G1 X-13.519 Y-1.75 E0.00716
G1 X-14.035 Y-1.683 E0.04327
G1 X-14.44 Y-1.51 E0.03662
G1 X-14.784 Y-1.247 E0.03601
G1 X-15.054 Y-.905 E0.03623
G1 X-15.232 Y-.506 E0.03633
G1 X-15.307 Y0.007 E0.04311
M566 X1800 Y1800
G0 F3600 X-15.27 Y0.254
G0 X-15.862 Y0.345
G0 X-19.908 Y0.014
G0 X-20.507 Y0.00
M566 X1200 Y1200
G1 F3000 X-20.58 Y-3.114 E0.259
